;FLAVOR:Marlin
;TIME:22478
;Filament used:15.8538m
;Layer height: 0.15
;MINX:77.006
;MINY:77.005
;MINZ:0.15
;MAXX:222.993
;MAXY:222.993
;MAXZ:9
                               
;Creality Print GCode Generated by CXEngine:NO_MAGE_VERSION_GIT_HEAD_BRANCH
;CXEngine Release Time:2022-09-30 09:53:04
;Gcode Generated Time:2023-11-14 21:25:14
;----------Machine Config--------------
;Machine Name:Creality Ender-3 S1 Plus
;Machine Height:300
;Machine Width:300
;Machine Depth:300
;Material name:PLA
;Number of Extruders:1
;ExtruderParams[0] Nozzle Diameter1000
;----------Profile Config---------------
;Engine Version:275f99b
;Engine Release Time:2022-09-30 09:42:18
;Layer Height:0.15
;Wall Thickness:0.8
;Top/Bottom Thickness:1
;Out Wall Line Width:0.4
;Inner Wall Line Width:0.4
;Inital Layer Height:150
;Wall Line Count:2
;Infill Line Distance:0.8
;Infill Pattern:lines
;Infill Sparse Density:50
;Infill Wipe Distance:0
;Print Temperature:200
;Bed Temperature:60
;Support Enable:true
;Support Density:40
;Support Angle:60
;Adhesion Type:lace
;machine is belt:false
;machine belt offset:10
;machine belt offset Y:0
;Raft Base Line Spacing:1.6
;Wait Heatup Sync:true
;----------Shell Config----------------
;Outer Wall Wipe Distance:200
;Outer Inset First:false
;Infill Before Walls:false
;Infill Overlap:0.2
;Fill Gaps Between Walls:everywhere
;Minimum Infill Area:1
;Top Surface Skin Layer:0
;Top Layers:4
;Z Seam Alignment:sharpest_corner
;Seam Corner Preference:z_seam_corner_inner
;Z Seam X:150
;Z Seam Y:150
;Horizontal Expansion:0
;Top/Bottom Pattern:zigzag
;Ironing Pattern:zigzag
;Vase Model:false
;----------Support Config----------------
;Support Type:everywhere
;Support Pattern:grid
;Support Infill Layer Thickness:0.15
;Minimum Support Area:5
;Enable Support Roof:false
;Support Roof Thickness:0.8
;Support Roof Pattern:lines
;Connect Support Lines:0
;Connect Support ZigZags:1
;Minimum Support X/Y Distance:0.2
;Support Line Distance:2
; ---------PrintSpeed & Travel----------
;Enable Print Cool:true
;Avoid Printed Parts Traveling:true
;Enable Retraction:true
;Retraction Distance:8
;Retraction Speed:100
;Retraction Prime Speed:100
;Maximum Retraction Count:100
;Minimum Extrusion Distance Window:1
;Z Hop When Retracted:false
;Z Hop Height:0.2
;Retract Before Outer Wall:true
;Print Speed:50
;Infill Speed:50

;Prime Tower Speed:50
;Travel Speed:120
;Initial Layer Speed:25
;Skirt/Brim Speed:25
;Combing Mode:infill
; --------SpecialModel&Mesh Fixes--------
;Union Overlapping Volum:true
;Remove All Holes:false
;Maximum Travel Resolution:0.25
;Maximum Deviation:0.05
;Maximum Model Angle:0.872665
;IS Mold Print:false
;Make Overhang Printable:false
;Enable Coasting:false
;Coasting Volumes:0.06
;Coasting Speed:0.9
;Raft AirGap:0.25
;Layer0 ZOverLap:0.13
;---------------------End of Head--------------------------
M140 S60
M105
M104 S200
M105
M109 S200
M105
M190 S60
M82 ;absolute extrusion mode
M220 S100 ;Reset Feedrate
M221 S100 ;Reset Flowrate

G28 ;Home

G92 E0 ;Reset Extruder
G1 Z2.0 F3000 ;Move Z Axis up
G1 X10.1 Y20 Z0.28 F5000.0 ;Move to start position
G1 X10.1 Y145.0 Z0.28 F1500.0 E15 ;Draw the first line
G1 X10.4 Y145.0 Z0.28 F5000.0 ;Move to side a little
G1 X10.4 Y20 Z0.28 F1500.0 E30 ;Draw the second line
G92 E0  ;Reset Extruder
G1 E-1.0000 F1800 ;Retract a bit
G1 Z2.0 F3000 ;Move Z Axis up
G1 E0.0000 F1800 

G92 E0
G92 E0
G1 F6000 E-8

;LAYER_COUNT:60

;LAYER:0
M107
G0 F3600 X78.117 Y81.551 Z0.15
;TYPE:SKIRT
G1 F6000 E0
G1 F1500 X78.541 Y81.177 E0.01551
G1 X79.027 Y80.89 E0.031
G1 X79.558 Y80.699 E0.04649
G1 X80.116 Y80.61 E0.06199
G1 X80.68 Y80.628 E0.07747
G1 X81.231 Y80.751 E0.09297
G1 X81.749 Y80.976 E0.10846
G1 X81.995 Y81.128 E0.1164
G1 X82.159 Y81.021 E0.12177
G1 X82.037 Y80.579 E0.13435
G1 X81.984 Y80.017 E0.14984
G1 X82.037 Y79.455 E0.16533
G1 X82.195 Y78.913 E0.18082
G1 X82.451 Y78.41 E0.19631
G1 X82.797 Y77.963 E0.21182
G1 X83.221 Y77.59 E0.22732
G1 X83.707 Y77.303 E0.2428
G1 X84.238 Y77.111 E0.2583
G1 X84.796 Y77.023 E0.2738
G1 X85.36 Y77.041 E0.28928
G1 X85.911 Y77.164 E0.30477
G1 X86.429 Y77.388 E0.32026
G1 X86.896 Y77.706 E0.33576
G1 X87.296 Y78.105 E0.35126
G1 X87.613 Y78.572 E0.36675
G1 X87.837 Y79.09 E0.38224
G1 X87.96 Y79.641 E0.39773
G1 X87.984 Y80.008 E0.40782
G1 X88.037 Y79.446 E0.42331
G1 X88.195 Y78.904 E0.4388
G1 X88.451 Y78.401 E0.45429
G1 X88.797 Y77.954 E0.4698
G1 X89.221 Y77.581 E0.48529
G1 X89.707 Y77.294 E0.50078
G1 X90.238 Y77.102 E0.51628
G1 X90.796 Y77.014 E0.53178
G1 X91.36 Y77.032 E0.54726
G1 X91.911 Y77.155 E0.56275
G1 X92.429 Y77.379 E0.57824
G1 X92.896 Y77.697 E0.59374
G1 X93.296 Y78.096 E0.60924
G1 X93.613 Y78.563 E0.62473
G1 X93.837 Y79.081 E0.64022
G1 X93.96 Y79.632 E0.65571
G1 X93.984 Y80.008 E0.66605
G1 X94.037 Y79.446 E0.68154
G1 X94.195 Y78.903 E0.69705
G1 X94.451 Y78.4 E0.71254
G1 X94.797 Y77.954 E0.72803
G1 X95.221 Y77.581 E0.74352
G1 X95.707 Y77.293 E0.75903
G1 X96.238 Y77.102 E0.77451
G1 X96.796 Y77.014 E0.79001
G1 X97.36 Y77.031 E0.80549
G1 X97.911 Y77.154 E0.82098
G1 X98.429 Y77.379 E0.83648
G1 X98.896 Y77.696 E0.85197
G1 X99.296 Y78.095 E0.86747
G1 X99.613 Y78.562 E0.88296
G1 X99.837 Y79.081 E0.89847
G1 X99.96 Y79.632 E0.91396
G1 X99.984 Y80.007 E0.92427
G1 X100.037 Y79.445 E0.93976
G1 X100.195 Y78.903 E0.95525
G1 X100.451 Y78.4 E0.97074
G1 X100.797 Y77.954 E0.98623
G1 X101.221 Y77.58 E1.00174
G1 X101.707 Y77.293 E1.01723
G1 X102.238 Y77.101 E1.03272
G1 X102.796 Y77.013 E1.04822
G1 X103.36 Y77.031 E1.06371
G1 X103.911 Y77.154 E1.0792
G1 X104.429 Y77.378 E1.09469
G1 X104.896 Y77.696 E1.11019
G1 X105.296 Y78.095 E1.12569
G1 X105.613 Y78.562 E1.14118
G1 X105.837 Y79.08 E1.15667
G1 X105.96 Y79.631 E1.17216
G1 X105.984 Y80.007 E1.18249
G1 X106.037 Y79.445 E1.19798
G1 X106.195 Y78.902 E1.2135
G1 X106.451 Y78.399 E1.22899
G1 X106.797 Y77.953 E1.24448
G1 X107.221 Y77.58 E1.25997
G1 X107.707 Y77.292 E1.27547
G1 X108.238 Y77.101 E1.29096
G1 X108.796 Y77.013 E1.30646
G1 X109.36 Y77.03 E1.32194
G1 X109.911 Y77.154 E1.33744
G1 X110.429 Y77.378 E1.35293
G1 X110.896 Y77.695 E1.36841
G1 X111.296 Y78.095 E1.38394
G1 X111.613 Y78.562 E1.39942
G1 X111.837 Y79.08 E1.41491
G1 X111.96 Y79.631 E1.4304
G1 X111.984 Y80.006 E1.44071
G1 X112.037 Y79.444 E1.4562
G1 X112.195 Y78.902 E1.47169
G1 X112.451 Y78.399 E1.48718
G1 X112.797 Y77.953 E1.50267
G1 X113.221 Y77.579 E1.51818
G1 X113.707 Y77.292 E1.53367
G1 X114.238 Y77.101 E1.54915
G1 X114.796 Y77.012 E1.56466
G1 X115.36 Y77.03 E1.58014
G1 X115.911 Y77.153 E1.59563
G1 X116.429 Y77.377 E1.61112
G1 X116.896 Y77.695 E1.62662
G1 X117.296 Y78.094 E1.64212
G1 X117.613 Y78.561 E1.65761
G1 X117.837 Y79.079 E1.6731
G1 X117.96 Y79.63 E1.68859
G1 X117.984 Y80.006 E1.69893
G1 X118.037 Y79.444 E1.71442
G1 X118.195 Y78.902 E1.72991
G1 X118.451 Y78.398 E1.74542
G1 X118.797 Y77.952 E1.76091
G1 X119.221 Y77.579 E1.7764
G1 X119.707 Y77.291 E1.79191
G1 X120.238 Y77.1 E1.80739
G1 X120.796 Y77.012 E1.82289
G1 X121.36 Y77.03 E1.83837
G1 X121.911 Y77.153 E1.85387
G1 X122.429 Y77.377 E1.86935
G1 X122.896 Y77.694 E1.88484
G1 X123.296 Y78.094 E1.90036
G1 X123.613 Y78.561 E1.91585
G1 X123.837 Y79.079 E1.93134
G1 X123.96 Y79.63 E1.94683
G1 X123.984 Y80.006 E1.95716
G1 X124.037 Y79.443 E1.97268
G1 X124.195 Y78.901 E1.98817
G1 X124.451 Y78.398 E2.00366
G1 X124.797 Y77.952 E2.01915
G1 X125.221 Y77.578 E2.03466
G1 X125.707 Y77.291 E2.05015
G1 X126.238 Y77.1 E2.06563
G1 X126.796 Y77.011 E2.08114
G1 X127.36 Y77.029 E2.09662
G1 X127.911 Y77.152 E2.11211
G1 X128.429 Y77.377 E2.12761
G1 X128.896 Y77.694 E2.1431
G1 X129.296 Y78.093 E2.1586
G1 X129.613 Y78.56 E2.17409
G1 X129.837 Y79.078 E2.18957
G1 X129.96 Y79.63 E2.20509
G1 X129.984 Y80.005 E2.2154
G1 X130.037 Y79.443 E2.23089
G1 X130.195 Y78.901 E2.24638
G1 X130.451 Y78.398 E2.26187
G1 X130.797 Y77.951 E2.27738
G1 X131.221 Y77.578 E2.29288
G1 X131.707 Y77.291 E2.30837
G1 X132.238 Y77.099 E2.32386
G1 X132.796 Y77.011 E2.33936
G1 X133.36 Y77.029 E2.35484
G1 X133.911 Y77.152 E2.37033
G1 X134.429 Y77.376 E2.38582
G1 X134.896 Y77.694 E2.40132
G1 X135.296 Y78.093 E2.41683
G1 X135.613 Y78.56 E2.43231
G1 X135.837 Y79.078 E2.4478
G1 X135.96 Y79.629 E2.46329
G1 X135.984 Y80.005 E2.47363
G1 X136.037 Y79.443 E2.48912
G1 X136.195 Y78.9 E2.50464
G1 X136.451 Y78.397 E2.52012
G1 X136.797 Y77.951 E2.53561
G1 X137.221 Y77.578 E2.55111
G1 X137.707 Y77.29 E2.56661
G1 X138.238 Y77.099 E2.58209
G1 X138.796 Y77.011 E2.59759
G1 X139.36 Y77.028 E2.61308
G1 X139.911 Y77.151 E2.62857
G1 X140.429 Y77.376 E2.64406
G1 X140.896 Y77.693 E2.65955
G1 X141.296 Y78.092 E2.67506
G1 X141.613 Y78.559 E2.69054
G1 X141.837 Y79.078 E2.70605
G1 X141.96 Y79.629 E2.72155
G1 X141.984 Y80.004 E2.73186
G1 X142.037 Y79.442 E2.74735
G1 X142.195 Y78.9 E2.76284
G1 X142.451 Y78.397 E2.77832
G1 X142.797 Y77.951 E2.79381
G1 X143.221 Y77.577 E2.80933
G1 X143.707 Y77.29 E2.82481
G1 X144.238 Y77.098 E2.84031
G1 X144.796 Y77.01 E2.85581
G1 X145.36 Y77.028 E2.87129
G1 X145.911 Y77.151 E2.88678
G1 X146.429 Y77.375 E2.90227
G1 X146.896 Y77.693 E2.91777
G1 X147.296 Y78.092 E2.93328
G1 X147.613 Y78.559 E2.94876
G1 X147.837 Y79.077 E2.96425
G1 X147.96 Y79.628 E2.97974
G1 X147.984 Y80.004 E2.99008
G1 X148.037 Y79.442 E3.00557
G1 X148.195 Y78.899 E3.02109
G1 X148.451 Y78.396 E3.03657
G1 X148.797 Y77.95 E3.05206
G1 X149.221 Y77.577 E3.06756
G1 X149.707 Y77.289 E3.08306
G1 X150.238 Y77.098 E3.09854
G1 X150.796 Y77.01 E3.11404
G1 X151.36 Y77.027 E3.12953
G1 X151.911 Y77.151 E3.14502
G1 X152.429 Y77.375 E3.16051
G1 X152.896 Y77.692 E3.176
G1 X153.296 Y78.092 E3.19152
G1 X153.613 Y78.559 E3.20701
G1 X153.837 Y79.077 E3.22249
G1 X153.96 Y79.628 E3.23798
G1 X153.984 Y80.003 E3.24829
G1 X154.037 Y79.441 E3.26378
G1 X154.195 Y78.899 E3.27928
G1 X154.451 Y78.396 E3.29476
G1 X154.797 Y77.95 E3.31025
G1 X155.221 Y77.576 E3.32576
G1 X155.707 Y77.289 E3.34125
G1 X156.238 Y77.098 E3.35674
G1 X156.796 Y77.009 E3.37224
G1 X157.36 Y77.027 E3.38773
G1 X157.911 Y77.15 E3.40322
G1 X158.429 Y77.374 E3.4187
G1 X158.896 Y77.692 E3.43421
G1 X159.296 Y78.091 E3.44971
G1 X159.613 Y78.558 E3.4652
G1 X159.837 Y79.076 E3.48068
G1 X159.96 Y79.627 E3.49617
G1 X159.984 Y80.003 E3.50651
G1 X160.037 Y79.441 E3.522
G1 X160.195 Y78.899 E3.53749
G1 X160.451 Y78.395 E3.553
G1 X160.797 Y77.949 E3.56849
G1 X161.221 Y77.576 E3.58399
G1 X161.707 Y77.288 E3.59949
G1 X162.238 Y77.097 E3.61497
G1 X162.796 Y77.009 E3.63047
G1 X163.36 Y77.027 E3.64596
G1 X163.911 Y77.15 E3.66145
G1 X164.429 Y77.374 E3.67694
G1 X164.896 Y77.691 E3.69242
G1 X165.296 Y78.091 E3.70795
G1 X165.613 Y78.558 E3.72343
G1 X165.837 Y79.076 E3.73892
G1 X165.96 Y79.627 E3.75441
G1 X165.984 Y80.003 E3.76475
G1 X166.037 Y79.44 E3.78026
G1 X166.195 Y78.898 E3.79576
G1 X166.451 Y78.395 E3.81124
G1 X166.797 Y77.949 E3.82673
G1 X167.221 Y77.575 E3.84225
G1 X167.707 Y77.288 E3.85773
G1 X168.238 Y77.097 E3.87322
G1 X168.796 Y77.008 E3.88872
G1 X169.36 Y77.026 E3.90421
G1 X169.911 Y77.149 E3.9197
G1 X170.429 Y77.374 E3.93519
G1 X170.896 Y77.691 E3.95068
G1 X171.296 Y78.09 E3.96618
G1 X171.613 Y78.557 E3.98167
G1 X171.837 Y79.075 E3.99716
G1 X171.96 Y79.627 E4.01268
G1 X171.984 Y80.002 E4.02299
G1 X172.037 Y79.44 E4.03848
G1 X172.195 Y78.898 E4.05397
G1 X172.451 Y78.395 E4.06945
G1 X172.797 Y77.948 E4.08497
G1 X173.221 Y77.575 E4.10046
G1 X173.707 Y77.288 E4.11595
G1 X174.238 Y77.096 E4.13144
G1 X174.796 Y77.008 E4.14694
G1 X175.36 Y77.026 E4.16243
G1 X175.911 Y77.149 E4.17792
G1 X176.429 Y77.373 E4.1934
G1 X176.896 Y77.691 E4.20891
G1 X177.296 Y78.09 E4.22441
G1 X177.613 Y78.557 E4.2399
G1 X177.837 Y79.075 E4.25538
G1 X177.96 Y79.626 E4.27087
G1 X177.984 Y80.002 E4.28121
G1 X178.037 Y79.44 E4.2967
G1 X178.195 Y78.897 E4.31222
G1 X178.451 Y78.394 E4.32771
G1 X178.797 Y77.948 E4.3432
G1 X179.221 Y77.575 E4.35869
G1 X179.707 Y77.287 E4.37419
G1 X180.238 Y77.096 E4.38968
G1 X180.796 Y77.008 E4.40518
G1 X181.36 Y77.025 E4.42066
G1 X181.911 Y77.148 E4.43615
G1 X182.429 Y77.373 E4.45165
G1 X182.896 Y77.69 E4.46714
G1 X183.296 Y78.089 E4.48264
G1 X183.613 Y78.556 E4.49813
G1 X183.837 Y79.075 E4.51364
G1 X183.96 Y79.626 E4.52913
G1 X183.984 Y80.001 E4.53944
G1 X184.037 Y79.439 E4.55493
G1 X184.195 Y78.897 E4.57042
G1 X184.451 Y78.394 E4.58591
G1 X184.797 Y77.948 E4.6014
G1 X185.221 Y77.574 E4.61691
G1 X185.707 Y77.287 E4.6324
G1 X186.238 Y77.095 E4.64789
G1 X186.796 Y77.007 E4.66339
G1 X187.36 Y77.025 E4.67888
G1 X187.911 Y77.148 E4.69437
G1 X188.429 Y77.372 E4.70985
G1 X188.896 Y77.69 E4.72536
G1 X189.296 Y78.089 E4.74086
G1 X189.613 Y78.556 E4.75635
G1 X189.837 Y79.074 E4.77183
G1 X189.96 Y79.625 E4.78732
G1 X189.984 Y80.001 E4.79766
G1 X190.037 Y79.439 E4.81315
G1 X190.195 Y78.896 E4.82867
G1 X190.451 Y78.393 E4.84416
G1 X190.797 Y77.947 E4.85964
G1 X191.221 Y77.574 E4.87514
G1 X191.707 Y77.286 E4.89064
G1 X192.238 Y77.095 E4.90613
G1 X192.796 Y77.007 E4.92163
G1 X193.36 Y77.024 E4.93711
G1 X193.911 Y77.148 E4.95261
G1 X194.429 Y77.372 E4.96809
G1 X194.896 Y77.689 E4.98358
G1 X195.296 Y78.089 E4.9991
G1 X195.613 Y78.556 E5.01459
G1 X195.837 Y79.074 E5.03008
G1 X195.96 Y79.625 E5.04557
G1 X195.984 Y80 E5.05588
G1 X196.037 Y79.438 E5.07137
G1 X196.195 Y78.896 E5.08686
G1 X196.451 Y78.393 E5.10235
G1 X196.797 Y77.947 E5.11783
G1 X197.221 Y77.573 E5.13335
G1 X197.707 Y77.286 E5.14884
G1 X198.238 Y77.095 E5.16432
G1 X198.796 Y77.006 E5.17982
G1 X199.36 Y77.024 E5.19531
G1 X199.911 Y77.147 E5.2108
G1 X200.429 Y77.371 E5.22629
G1 X200.896 Y77.689 E5.24179
G1 X201.296 Y78.088 E5.25729
G1 X201.613 Y78.555 E5.27278
G1 X201.837 Y79.073 E5.28827
G1 X201.96 Y79.624 E5.30376
G1 X201.984 Y80 E5.31409
G1 X202.037 Y79.438 E5.32958
G1 X202.195 Y78.896 E5.34508
G1 X202.451 Y78.392 E5.36059
G1 X202.797 Y77.946 E5.37608
G1 X203.221 Y77.573 E5.39157
G1 X203.707 Y77.285 E5.40707
G1 X204.238 Y77.094 E5.42256
G1 X204.796 Y77.006 E5.43806
G1 X205.36 Y77.024 E5.45354
G1 X205.911 Y77.147 E5.46903
G1 X206.429 Y77.371 E5.48452
G1 X206.896 Y77.688 E5.50001
G1 X207.296 Y78.088 E5.51553
G1 X207.613 Y78.555 E5.53102
G1 X207.837 Y79.073 E5.5465
G1 X207.96 Y79.624 E5.56199
G1 X207.984 Y80 E5.57233
G1 X208.037 Y79.437 E5.58785
G1 X208.195 Y78.895 E5.60334
G1 X208.451 Y78.392 E5.61883
G1 X208.797 Y77.946 E5.63432
G1 X209.221 Y77.573 E5.64981
G1 X209.707 Y77.285 E5.66531
G1 X210.238 Y77.094 E5.6808
G1 X210.796 Y77.005 E5.6963
G1 X211.36 Y77.023 E5.71179
G1 X211.911 Y77.146 E5.72728
G1 X212.429 Y77.371 E5.74277
G1 X212.896 Y77.688 E5.75826
G1 X213.296 Y78.087 E5.77376
G1 X213.613 Y78.554 E5.78925
G1 X213.837 Y79.073 E5.80476
G1 X213.96 Y79.624 E5.82025
G1 X213.985 Y80.013 E5.83095
G1 X214.103 Y79.495 E5.84553
G1 X214.328 Y78.977 E5.86102
G1 X214.645 Y78.51 E5.87651
G1 X215.044 Y78.11 E5.89201
G1 X215.511 Y77.793 E5.9075
G1 X216.03 Y77.569 E5.92301
G1 X216.581 Y77.446 E5.9385
G1 X217.145 Y77.428 E5.95399
G1 X217.703 Y77.516 E5.96949
G1 X218.234 Y77.707 E5.98497
G1 X218.72 Y77.995 E6.00047
G1 X219.143 Y78.368 E6.01595
G1 X219.49 Y78.814 E6.03146
G1 X219.746 Y79.318 E6.04697
G1 X219.903 Y79.86 E6.06245
G1 X219.957 Y80.422 E6.07794
G1 X219.903 Y80.984 E6.09343
G1 X219.746 Y81.526 E6.10892
G1 X219.49 Y82.029 E6.12441
G1 X219.168 Y82.448 E6.13891
G1 X219.465 Y82.902 E6.15379
G1 X219.991 Y82.855 E6.16828
G1 X220.553 Y82.908 E6.18377
G1 X221.095 Y83.065 E6.19926
G1 X221.598 Y83.322 E6.21476
G1 X222.044 Y83.668 E6.23024
G1 X222.418 Y84.091 E6.24574
G1 X222.705 Y84.577 E6.26122
G1 X222.896 Y85.109 E6.27673
G1 X222.985 Y85.666 E6.29221
G1 X222.967 Y86.231 E6.30772
G1 X222.844 Y86.782 E6.32322
G1 X222.619 Y87.3 E6.33871
G1 X222.302 Y87.767 E6.3542
G1 X221.903 Y88.166 E6.36968
G1 X221.436 Y88.484 E6.38519
G1 X220.918 Y88.708 E6.40067
G1 X220.367 Y88.831 E6.41616
G1 X219.991 Y88.855 E6.4265
G1 X220.553 Y88.908 E6.44199
G1 X221.095 Y89.065 E6.45747
G1 X221.598 Y89.322 E6.47297
G1 X222.045 Y89.668 E6.48848
G1 X222.418 Y90.091 E6.50396
G1 X222.705 Y90.577 E6.51945
G1 X222.897 Y91.109 E6.53497
G1 X222.985 Y91.666 E6.55044
G1 X222.967 Y92.231 E6.56595
G1 X222.844 Y92.782 E6.58144
G1 X222.62 Y93.3 E6.59693
G1 X222.303 Y93.767 E6.61242
G1 X221.903 Y94.166 E6.62792
G1 X221.436 Y94.484 E6.64342
G1 X220.918 Y94.708 E6.65891
