;FLAVOR:Marlin
;TIME:21589
;Filament used:15.8508m
;Layer height: 0.15
;MINX:77.006
;MINY:77.005
;MINZ:0.15
;MAXX:222.993
;MAXY:222.993
;MAXZ:7.95
                            
;Creality Print GCode Generated by CXEngine:NO_MAGE_VERSION_GIT_HEAD_BRANCH
;CXEngine Release Time:2022-09-30 09:53:04
;Gcode Generated Time:2023-11-14 21:24:09
;----------Machine Config--------------
;Machine Name:Creality Ender-3 S1 Plus
;Machine Height:300
;Machine Width:300
;Machine Depth:300
;Material name:PLA
;Number of Extruders:1
;ExtruderParams[0] Nozzle Diameter1000
;----------Profile Config---------------
;Engine Version:275f99b
;Engine Release Time:2022-09-30 09:42:18
;Layer Height:0.15
;Wall Thickness:0.8
;Top/Bottom Thickness:1
;Out Wall Line Width:0.4
;Inner Wall Line Width:0.4
;Inital Layer Height:150
;Wall Line Count:2
;Infill Line Distance:0.8
;Infill Pattern:lines
;Infill Sparse Density:50
;Infill Wipe Distance:0
;Print Temperature:200
;Bed Temperature:60
;Support Enable:true
;Support Density:40
;Support Angle:60
;Adhesion Type:lace
;machine is belt:false
;machine belt offset:10
;machine belt offset Y:0
;Raft Base Line Spacing:1.6
;Wait Heatup Sync:true
;----------Shell Config----------------
;Outer Wall Wipe Distance:200
;Outer Inset First:false
;Infill Before Walls:false
;Infill Overlap:0.2
;Fill Gaps Between Walls:everywhere
;Minimum Infill Area:1
;Top Surface Skin Layer:0
;Top Layers:4
;Z Seam Alignment:sharpest_corner
;Seam Corner Preference:z_seam_corner_inner
;Z Seam X:150
;Z Seam Y:150
;Horizontal Expansion:0
;Top/Bottom Pattern:zigzag
;Ironing Pattern:zigzag
;Vase Model:false
;----------Support Config----------------
;Support Type:everywhere
;Support Pattern:grid
;Support Infill Layer Thickness:0.15
;Minimum Support Area:5
;Enable Support Roof:false
;Support Roof Thickness:0.8
;Support Roof Pattern:lines
;Connect Support Lines:0
;Connect Support ZigZags:1
;Minimum Support X/Y Distance:0.2
;Support Line Distance:2
; ---------PrintSpeed & Travel----------
;Enable Print Cool:true
;Avoid Printed Parts Traveling:true
;Enable Retraction:true
;Retraction Distance:8
;Retraction Speed:100
;Retraction Prime Speed:100
;Maximum Retraction Count:100
;Minimum Extrusion Distance Window:1
;Z Hop When Retracted:false
;Z Hop Height:0.2
;Retract Before Outer Wall:true
;Print Speed:50
;Infill Speed:50

;Prime Tower Speed:50
;Travel Speed:120
;Initial Layer Speed:25
;Skirt/Brim Speed:25
;Combing Mode:infill
; --------SpecialModel&Mesh Fixes--------
;Union Overlapping Volum:true
;Remove All Holes:false
;Maximum Travel Resolution:0.25
;Maximum Deviation:0.05
;Maximum Model Angle:0.872665
;IS Mold Print:false
;Make Overhang Printable:false
;Enable Coasting:false
;Coasting Volumes:0.06
;Coasting Speed:0.9
;Raft AirGap:0.25
;Layer0 ZOverLap:0.13
;---------------------End of Head--------------------------
M140 S60
M105
M104 S200
M105
M109 S200
M105
M190 S60
M82 ;absolute extrusion mode
M220 S100 ;Reset Feedrate
M221 S100 ;Reset Flowrate

G28 ;Home

G92 E0 ;Reset Extruder
G1 Z2.0 F3000 ;Move Z Axis up
G1 X10.1 Y20 Z0.28 F5000.0 ;Move to start position
G1 X10.1 Y145.0 Z0.28 F1500.0 E15 ;Draw the first line
G1 X10.4 Y145.0 Z0.28 F5000.0 ;Move to side a little
G1 X10.4 Y20 Z0.28 F1500.0 E30 ;Draw the second line
G92 E0  ;Reset Extruder
G1 E-1.0000 F1800 ;Retract a bit
G1 Z2.0 F3000 ;Move Z Axis up
G1 E0.0000 F1800 

G92 E0
G92 E0
G1 F6000 E-8

;LAYER_COUNT:53

;LAYER:0
M107
G0 F3600 X78.117 Y81.551 Z0.15
G0 X84.238 Y77.111
;TYPE:SKIRT
G1 F6000 E0
G1 F1500 X84.796 Y77.023 E0.0155
G1 X85.36 Y77.041 E0.03098
G1 X85.911 Y77.164 E0.04648
G1 X86.429 Y77.388 E0.06196
G1 X86.896 Y77.706 E0.07746
G1 X87.296 Y78.105 E0.09297
G1 X87.613 Y78.572 E0.10846
G1 X87.837 Y79.09 E0.12394
G1 X87.96 Y79.641 E0.13943
G1 X87.984 Y80.008 E0.14952
G1 X88.037 Y79.446 E0.16501
G1 X88.195 Y78.904 E0.1805
G1 X88.451 Y78.401 E0.19599
G1 X88.797 Y77.954 E0.2115
G1 X89.221 Y77.581 E0.227
G1 X89.707 Y77.294 E0.24249
G1 X90.238 Y77.102 E0.25798
G1 X90.796 Y77.014 E0.27348
G1 X91.36 Y77.032 E0.28896
G1 X91.911 Y77.155 E0.30445
G1 X92.429 Y77.379 E0.31994
G1 X92.896 Y77.697 E0.33544
G1 X93.296 Y78.096 E0.35095
G1 X93.613 Y78.563 E0.36643
G1 X93.837 Y79.081 E0.38192
G1 X93.96 Y79.632 E0.39741
G1 X93.984 Y80.008 E0.40775
G1 X94.037 Y79.446 E0.42324
G1 X94.195 Y78.903 E0.43876
G1 X94.451 Y78.4 E0.45424
G1 X94.797 Y77.954 E0.46973
G1 X95.221 Y77.581 E0.48523
G1 X95.707 Y77.293 E0.50073
G1 X96.238 Y77.102 E0.51621
G1 X96.796 Y77.014 E0.53171
G1 X97.36 Y77.031 E0.5472
G1 X97.911 Y77.154 E0.56269
G1 X98.429 Y77.379 E0.57819
G1 X98.896 Y77.696 E0.59367
G1 X99.296 Y78.095 E0.60918
G1 X99.613 Y78.562 E0.62466
G1 X99.837 Y79.081 E0.64017
G1 X99.96 Y79.632 E0.65567
G1 X99.984 Y80.007 E0.66598
G1 X100.037 Y79.445 E0.68147
G1 X100.195 Y78.903 E0.69696
G1 X100.451 Y78.4 E0.71244
G1 X100.797 Y77.954 E0.72793
G1 X101.221 Y77.58 E0.74345
G1 X101.707 Y77.293 E0.75893
G1 X102.238 Y77.101 E0.77443
G1 X102.796 Y77.013 E0.78993
G1 X103.36 Y77.031 E0.80541
G1 X103.911 Y77.154 E0.8209
G1 X104.429 Y77.378 E0.83639
G1 X104.896 Y77.696 E0.85189
G1 X105.296 Y78.095 E0.8674
G1 X105.613 Y78.562 E0.88288
G1 X105.837 Y79.08 E0.89837
G1 X105.96 Y79.631 E0.91386
G1 X105.984 Y80.007 E0.9242
G1 X106.037 Y79.445 E0.93969
G1 X106.195 Y78.902 E0.95521
G1 X106.451 Y78.399 E0.97069
G1 X106.797 Y77.953 E0.98618
G1 X107.221 Y77.58 E1.00168
G1 X107.707 Y77.292 E1.01718
G1 X108.238 Y77.101 E1.03266
G1 X108.796 Y77.013 E1.04816
G1 X109.36 Y77.03 E1.06365
G1 X109.911 Y77.154 E1.07914
G1 X110.429 Y77.378 E1.09463
G1 X110.896 Y77.695 E1.11012
G1 X111.296 Y78.095 E1.12564
G1 X111.613 Y78.562 E1.14113
G1 X111.837 Y79.08 E1.15661
G1 X111.96 Y79.631 E1.1721
G1 X111.984 Y80.006 E1.18241
G1 X112.037 Y79.444 E1.1979
G1 X112.195 Y78.902 E1.2134
G1 X112.451 Y78.399 E1.22888
G1 X112.797 Y77.953 E1.24437
G1 X113.221 Y77.579 E1.25989
G1 X113.707 Y77.292 E1.27537
G1 X114.238 Y77.101 E1.29086
G1 X114.796 Y77.012 E1.30636
G1 X115.36 Y77.03 E1.32185
G1 X115.911 Y77.153 E1.33734
G1 X116.429 Y77.377 E1.35282
G1 X116.896 Y77.695 E1.36833
G1 X117.296 Y78.094 E1.38383
G1 X117.613 Y78.561 E1.39932
G1 X117.837 Y79.079 E1.4148
G1 X117.96 Y79.63 E1.43029
G1 X117.984 Y80.006 E1.44063
G1 X118.037 Y79.444 E1.45612
G1 X118.195 Y78.902 E1.47161
G1 X118.451 Y78.398 E1.48712
G1 X118.797 Y77.952 E1.50261
G1 X119.221 Y77.579 E1.51811
G1 X119.707 Y77.291 E1.53361
G1 X120.238 Y77.1 E1.54909
G1 X120.796 Y77.012 E1.56459
G1 X121.36 Y77.03 E1.58008
G1 X121.911 Y77.153 E1.59557
G1 X122.429 Y77.377 E1.61106
G1 X122.896 Y77.694 E1.62654
G1 X123.296 Y78.094 E1.64207
G1 X123.613 Y78.561 E1.65755
G1 X123.837 Y79.079 E1.67304
G1 X123.96 Y79.63 E1.68853
G1 X123.984 Y80.006 E1.69887
G1 X124.037 Y79.443 E1.71439
G1 X124.195 Y78.901 E1.72988
G1 X124.451 Y78.398 E1.74536
G1 X124.797 Y77.952 E1.76085
G1 X125.221 Y77.578 E1.77637
G1 X125.707 Y77.291 E1.79185
G1 X126.238 Y77.1 E1.80734
G1 X126.796 Y77.011 E1.82284
G1 X127.36 Y77.029 E1.83833
G1 X127.911 Y77.152 E1.85382
G1 X128.429 Y77.377 E1.86931
G1 X128.896 Y77.694 E1.8848
G1 X129.296 Y78.093 E1.9003
G1 X129.613 Y78.56 E1.91579
G1 X129.837 Y79.078 E1.93128
G1 X129.96 Y79.63 E1.9468
G1 X129.984 Y80.005 E1.95711
G1 X130.037 Y79.443 E1.9726
G1 X130.195 Y78.901 E1.98809
G1 X130.451 Y78.398 E2.00358
G1 X130.797 Y77.951 E2.01909
G1 X131.221 Y77.578 E2.03458
G1 X131.707 Y77.291 E2.05007
G1 X132.238 Y77.099 E2.06556
G1 X132.796 Y77.011 E2.08106
G1 X133.36 Y77.029 E2.09655
G1 X133.911 Y77.152 E2.11204
G1 X134.429 Y77.376 E2.12752
G1 X134.896 Y77.694 E2.14303
G1 X135.296 Y78.093 E2.15853
G1 X135.613 Y78.56 E2.17402
G1 X135.837 Y79.078 E2.1895
G1 X135.96 Y79.629 E2.20499
G1 X135.984 Y80.005 E2.21533
G1 X136.037 Y79.443 E2.23082
G1 X136.195 Y78.9 E2.24634
G1 X136.451 Y78.397 E2.26183
G1 X136.797 Y77.951 E2.27732
G1 X137.221 Y77.578 E2.29281
G1 X137.707 Y77.29 E2.30831
G1 X138.238 Y77.099 E2.3238
G1 X138.796 Y77.011 E2.3393
G1 X139.36 Y77.028 E2.35478
G1 X139.911 Y77.151 E2.37027
G1 X140.429 Y77.376 E2.38577
G1 X140.896 Y77.693 E2.40126
G1 X141.296 Y78.092 E2.41676
G1 X141.613 Y78.559 E2.43225
G1 X141.837 Y79.078 E2.44776
G1 X141.96 Y79.629 E2.46325
G1 X141.984 Y80.004 E2.47356
G1 X142.037 Y79.442 E2.48905
G1 X142.195 Y78.9 E2.50454
G1 X142.451 Y78.397 E2.52003
G1 X142.797 Y77.951 E2.53552
G1 X143.221 Y77.577 E2.55103
G1 X143.707 Y77.29 E2.56652
G1 X144.238 Y77.098 E2.58201
G1 X144.796 Y77.01 E2.59751
G1 X145.36 Y77.028 E2.613
G1 X145.911 Y77.151 E2.62849
G1 X146.429 Y77.375 E2.64397
G1 X146.896 Y77.693 E2.65948
G1 X147.296 Y78.092 E2.67498
G1 X147.613 Y78.559 E2.69047
G1 X147.837 Y79.077 E2.70595
G1 X147.96 Y79.628 E2.72144
G1 X147.984 Y80.004 E2.73178
G1 X148.037 Y79.442 E2.74727
G1 X148.195 Y78.899 E2.76279
G1 X148.451 Y78.396 E2.77828
G1 X148.797 Y77.95 E2.79376
G1 X149.221 Y77.577 E2.80926
G1 X149.707 Y77.289 E2.82476
G1 X150.238 Y77.098 E2.84025
G1 X150.796 Y77.01 E2.85575
G1 X151.36 Y77.027 E2.87123
G1 X151.911 Y77.151 E2.88673
G1 X152.429 Y77.375 E2.90221
G1 X152.896 Y77.692 E2.9177
G1 X153.296 Y78.092 E2.93322
G1 X153.613 Y78.559 E2.94871
G1 X153.837 Y79.077 E2.9642
G1 X153.96 Y79.628 E2.97969
G1 X153.984 Y80.003 E2.99
G1 X154.037 Y79.441 E3.00549
G1 X154.195 Y78.899 E3.02098
G1 X154.451 Y78.396 E3.03647
G1 X154.797 Y77.95 E3.05195
G1 X155.221 Y77.576 E3.06747
G1 X155.707 Y77.289 E3.08296
G1 X156.238 Y77.098 E3.09844
G1 X156.796 Y77.009 E3.11395
G1 X157.36 Y77.027 E3.12943
G1 X157.911 Y77.15 E3.14492
G1 X158.429 Y77.374 E3.16041
G1 X158.896 Y77.692 E3.17591
G1 X159.296 Y78.091 E3.19141
G1 X159.613 Y78.558 E3.2069
G1 X159.837 Y79.076 E3.22239
G1 X159.96 Y79.627 E3.23788
G1 X159.984 Y80.003 E3.24822
G1 X160.037 Y79.441 E3.2637
G1 X160.195 Y78.899 E3.2792
G1 X160.451 Y78.395 E3.29471
G1 X160.797 Y77.949 E3.3102
G1 X161.221 Y77.576 E3.32569
G1 X161.707 Y77.288 E3.34119
G1 X162.238 Y77.097 E3.35668
G1 X162.796 Y77.009 E3.37218
G1 X163.36 Y77.027 E3.38766
G1 X163.911 Y77.15 E3.40315
G1 X164.429 Y77.374 E3.41864
G1 X164.896 Y77.691 E3.43413
G1 X165.296 Y78.091 E3.44965
G1 X165.613 Y78.558 E3.46514
G1 X165.837 Y79.076 E3.48062
G1 X165.96 Y79.627 E3.49611
G1 X165.984 Y80.003 E3.50645
G1 X166.037 Y79.44 E3.52197
G1 X166.195 Y78.898 E3.53746
G1 X166.451 Y78.395 E3.55295
G1 X166.797 Y77.949 E3.56844
G1 X167.221 Y77.575 E3.58395
G1 X167.707 Y77.288 E3.59944
G1 X168.238 Y77.097 E3.61492
G1 X168.796 Y77.008 E3.63043
G1 X169.36 Y77.026 E3.64591
G1 X169.911 Y77.149 E3.6614
G1 X170.429 Y77.374 E3.6769
G1 X170.896 Y77.691 E3.69239
G1 X171.296 Y78.09 E3.70789
G1 X171.613 Y78.557 E3.72338
G1 X171.837 Y79.075 E3.73886
G1 X171.96 Y79.627 E3.75438
G1 X171.984 Y80.002 E3.76469
G1 X172.037 Y79.44 E3.78018
G1 X172.195 Y78.898 E3.79567
G1 X172.451 Y78.395 E3.81116
G1 X172.797 Y77.948 E3.82667
G1 X173.221 Y77.575 E3.84216
G1 X173.707 Y77.288 E3.85765
G1 X174.238 Y77.096 E3.87315
G1 X174.796 Y77.008 E3.88865
G1 X175.36 Y77.026 E3.90413
G1 X175.911 Y77.149 E3.91962
G1 X176.429 Y77.373 E3.93511
G1 X176.896 Y77.691 E3.95061
G1 X177.296 Y78.09 E3.96611
G1 X177.613 Y78.557 E3.9816
G1 X177.837 Y79.075 E3.99709
G1 X177.96 Y79.626 E4.01258
G1 X177.984 Y80.002 E4.02292
G1 X178.037 Y79.44 E4.03841
G1 X178.195 Y78.897 E4.05392
G1 X178.451 Y78.394 E4.06941
G1 X178.797 Y77.948 E4.0849
G1 X179.221 Y77.575 E4.10039
G1 X179.707 Y77.287 E4.1159
G1 X180.238 Y77.096 E4.13138
G1 X180.796 Y77.008 E4.14688
G1 X181.36 Y77.025 E4.16236
G1 X181.911 Y77.148 E4.17786
G1 X182.429 Y77.373 E4.19335
G1 X182.896 Y77.69 E4.20884
G1 X183.296 Y78.089 E4.22434
G1 X183.613 Y78.556 E4.23983
G1 X183.837 Y79.075 E4.25534
G1 X183.96 Y79.626 E4.27083
G1 X183.984 Y80.001 E4.28114
G1 X184.037 Y79.439 E4.29663
G1 X184.195 Y78.897 E4.31212
G1 X184.451 Y78.394 E4.32761
G1 X184.797 Y77.948 E4.3431
G1 X185.221 Y77.574 E4.35861
G1 X185.707 Y77.287 E4.3741
G1 X186.238 Y77.095 E4.38959
G1 X186.796 Y77.007 E4.4051
G1 X187.36 Y77.025 E4.42058
G1 X187.911 Y77.148 E4.43607
G1 X188.429 Y77.372 E4.45156
G1 X188.896 Y77.69 E4.46706
G1 X189.296 Y78.089 E4.48256
G1 X189.613 Y78.556 E4.49805
G1 X189.837 Y79.074 E4.51354
G1 X189.96 Y79.625 E4.52903
G1 X189.984 Y80.001 E4.53937
G1 X190.037 Y79.439 E4.55485
G1 X190.195 Y78.896 E4.57037
G1 X190.451 Y78.393 E4.58586
G1 X190.797 Y77.947 E4.60135
G1 X191.221 Y77.574 E4.61684
G1 X191.707 Y77.286 E4.63235
G1 X192.238 Y77.095 E4.64783
G1 X192.796 Y77.007 E4.66333
G1 X193.36 Y77.024 E4.67881
G1 X193.911 Y77.148 E4.69431
G1 X194.429 Y77.372 E4.7098
G1 X194.896 Y77.689 E4.72528
G1 X195.296 Y78.089 E4.74081
G1 X195.613 Y78.556 E4.75629
G1 X195.837 Y79.074 E4.77178
G1 X195.96 Y79.625 E4.78727
G1 X195.984 Y80 E4.79758
G1 X196.037 Y79.438 E4.81307
G1 X196.195 Y78.896 E4.82856
G1 X196.451 Y78.393 E4.84405
G1 X196.797 Y77.947 E4.85954
G1 X197.221 Y77.573 E4.87505
G1 X197.707 Y77.286 E4.89054
G1 X198.238 Y77.095 E4.90602
G1 X198.796 Y77.006 E4.92153
G1 X199.36 Y77.024 E4.93701
G1 X199.911 Y77.147 E4.9525
G1 X200.429 Y77.371 E4.96799
G1 X200.896 Y77.689 E4.98349
G1 X201.296 Y78.088 E4.999
G1 X201.613 Y78.555 E5.01448
G1 X201.837 Y79.073 E5.02997
G1 X201.96 Y79.624 E5.04546
G1 X201.984 Y80 E5.0558
G1 X202.037 Y79.438 E5.07129
G1 X202.195 Y78.896 E5.08678
G1 X202.451 Y78.392 E5.10229
G1 X202.797 Y77.946 E5.11778
G1 X203.221 Y77.573 E5.13328
G1 X203.707 Y77.285 E5.14878
G1 X204.238 Y77.094 E5.16426
G1 X204.796 Y77.006 E5.17976
G1 X205.36 Y77.024 E5.19525
G1 X205.911 Y77.147 E5.21074
G1 X206.429 Y77.371 E5.22622
G1 X206.896 Y77.688 E5.24171
G1 X207.296 Y78.088 E5.25723
G1 X207.613 Y78.555 E5.27272
G1 X207.837 Y79.073 E5.28821
G1 X207.96 Y79.624 E5.3037
G1 X207.984 Y80 E5.31404
G1 X208.037 Y79.437 E5.32955
G1 X208.195 Y78.895 E5.34504
G1 X208.451 Y78.392 E5.36053
G1 X208.797 Y77.946 E5.37602
G1 X209.221 Y77.573 E5.39151
G1 X209.707 Y77.285 E5.40702
G1 X210.238 Y77.094 E5.4225
G1 X210.796 Y77.005 E5.43801
G1 X211.36 Y77.023 E5.45349
G1 X211.911 Y77.146 E5.46898
G1 X212.429 Y77.371 E5.48448
G1 X212.896 Y77.688 E5.49996
G1 X213.296 Y78.087 E5.51547
G1 X213.613 Y78.554 E5.53096
G1 X213.837 Y79.073 E5.54647
G1 X213.96 Y79.624 E5.56196
G1 X213.985 Y80.013 E5.57265
G1 X214.103 Y79.495 E5.58723
G1 X214.328 Y78.977 E5.60273
G1 X214.645 Y78.51 E5.61822
G1 X215.044 Y78.11 E5.63372
G1 X215.511 Y77.793 E5.64921
G1 X216.03 Y77.569 E5.66472
G1 X216.581 Y77.446 E5.68021
G1 X217.145 Y77.428 E5.69569
G1 X217.703 Y77.516 E5.71119
G1 X218.234 Y77.707 E5.72668
G1 X218.72 Y77.995 E5.74218
G1 X219.143 Y78.368 E5.75765
G1 X219.49 Y78.814 E5.77316
G1 X219.746 Y79.318 E5.78867
G1 X219.903 Y79.86 E5.80415
G1 X219.957 Y80.422 E5.81965
G1 X219.903 Y80.984 E5.83514
G1 X219.746 Y81.526 E5.85062
G1 X219.49 Y82.029 E5.86611
G1 X219.168 Y82.448 E5.88061
G1 X219.465 Y82.902 E5.8955
G1 X219.991 Y82.855 E5.90999
G1 X220.553 Y82.908 E5.92548
G1 X221.095 Y83.065 E5.94096
G1 X221.598 Y83.322 E5.95646
G1 X222.044 Y83.668 E5.97195
G1 X222.418 Y84.091 E5.98744
G1 X222.705 Y84.577 E6.00293
G1 X222.896 Y85.109 E6.01844
G1 X222.985 Y85.666 E6.03392
G1 X222.967 Y86.231 E6.04943
G1 X222.844 Y86.782 E6.06492
G1 X222.619 Y87.3 E6.08042
G1 X222.302 Y87.767 E6.0959
G1 X221.903 Y88.166 E6.11139
G1 X221.436 Y88.484 E6.12689
G1 X220.918 Y88.708 E6.14238
G1 X220.367 Y88.831 E6.15787
G1 X219.991 Y88.855 E6.16821
G1 X220.553 Y88.908 E6.18369
G1 X221.095 Y89.065 E6.19918
G1 X221.598 Y89.322 E6.21468
G1 X222.045 Y89.668 E6.23019
G1 X222.418 Y90.091 E6.24566
G1 X222.705 Y90.577 E6.26115
G1 X222.897 Y91.109 E6.27667
G1 X222.985 Y91.666 E6.29214
G1 X222.967 Y92.231 E6.30765
G1 X222.844 Y92.782 E6.32315
G1 X222.62 Y93.3 E6.33863
G1 X222.303 Y93.767 E6.35412
G1 X221.903 Y94.166 E6.36962
G1 X221.436 Y94.484 E6.38513
G1 X220.918 Y94.708 E6.40061
G1 X220.367 Y94.831 E6.4161
G1 X219.992 Y94.855 E6.42641
G1 X220.554 Y94.908 E6.4419
G1 X221.096 Y95.065 E6.45739
G1 X221.599 Y95.322 E6.47289
G1 X222.045 Y95.668 E6.48837
G1 X222.418 Y96.091 E6.50385
G1 X222.706 Y96.577 E6.51935
G1 X222.897 Y97.109 E6.53486
G1 X222.986 Y97.666 E6.55034
G1 X222.968 Y98.231 E6.56585
G1 X222.845 Y98.782 E6.58134
G1 X222.62 Y99.3 E6.59684
G1 X222.303 Y99.767 E6.61233
G1 X221.904 Y100.166 E6.62781
G1 X221.437 Y100.484 E6.64331
G1 X220.918 Y100.708 E6.65882
