;FLAVOR:Marlin
;TIME:5409
;Filament used:3.2192m
;Layer height: 0.15
;MINX:134.509
;MINY:134.51
;MINZ:0.15
;MAXX:165.484
;MAXY:165.493
;MAXZ:21.9
                             
;Creality Print GCode Generated by CXEngine:NO_MAGE_VERSION_GIT_HEAD_BRANCH
;CXEngine Release Time:2022-09-30 09:53:04
;Gcode Generated Time:2023-11-14 21:28:20
;----------Machine Config--------------
;Machine Name:Creality Ender-3 S1 Plus
;Machine Height:300
;Machine Width:300
;Machine Depth:300
;Material name:PLA
;Number of Extruders:1
;ExtruderParams[0] Nozzle Diameter1000
;----------Profile Config---------------
;Engine Version:275f99b
;Engine Release Time:2022-09-30 09:42:18
;Layer Height:0.15
;Wall Thickness:0.8
;Top/Bottom Thickness:1
;Out Wall Line Width:0.4
;Inner Wall Line Width:0.4
;Inital Layer Height:150
;Wall Line Count:2
;Infill Line Distance:0.8
;Infill Pattern:lines
;Infill Sparse Density:50
;Infill Wipe Distance:0
;Print Temperature:200
;Bed Temperature:60
;Support Enable:true
;Support Density:40
;Support Angle:60
;Adhesion Type:lace
;machine is belt:false
;machine belt offset:10
;machine belt offset Y:0
;Raft Base Line Spacing:1.6
;Wait Heatup Sync:true
;----------Shell Config----------------
;Outer Wall Wipe Distance:200
;Outer Inset First:false
;Infill Before Walls:false
;Infill Overlap:0.2
;Fill Gaps Between Walls:everywhere
;Minimum Infill Area:1
;Top Surface Skin Layer:0
;Top Layers:4
;Z Seam Alignment:sharpest_corner
;Seam Corner Preference:z_seam_corner_inner
;Z Seam X:150
;Z Seam Y:150
;Horizontal Expansion:0
;Top/Bottom Pattern:zigzag
;Ironing Pattern:zigzag
;Vase Model:false
;----------Support Config----------------
;Support Type:everywhere
;Support Pattern:grid
;Support Infill Layer Thickness:0.15
;Minimum Support Area:5
;Enable Support Roof:false
;Support Roof Thickness:0.8
;Support Roof Pattern:lines
;Connect Support Lines:0
;Connect Support ZigZags:1
;Minimum Support X/Y Distance:0.2
;Support Line Distance:2
; ---------PrintSpeed & Travel----------
;Enable Print Cool:true
;Avoid Printed Parts Traveling:true
;Enable Retraction:true
;Retraction Distance:8
;Retraction Speed:100
;Retraction Prime Speed:100
;Maximum Retraction Count:100
;Minimum Extrusion Distance Window:1
;Z Hop When Retracted:false
;Z Hop Height:0.2
;Retract Before Outer Wall:true
;Print Speed:50
;Infill Speed:50

;Prime Tower Speed:50
;Travel Speed:120
;Initial Layer Speed:25
;Skirt/Brim Speed:25
;Combing Mode:infill
; --------SpecialModel&Mesh Fixes--------
;Union Overlapping Volum:true
;Remove All Holes:false
;Maximum Travel Resolution:0.25
;Maximum Deviation:0.05
;Maximum Model Angle:0.872665
;IS Mold Print:false
;Make Overhang Printable:false
;Enable Coasting:false
;Coasting Volumes:0.06
;Coasting Speed:0.9
;Raft AirGap:0.25
;Layer0 ZOverLap:0.13
;---------------------End of Head--------------------------
M140 S60
M105
M104 S200
M105
M109 S200
M105
M190 S60
M82 ;absolute extrusion mode
M220 S100 ;Reset Feedrate
M221 S100 ;Reset Flowrate

G28 ;Home

G92 E0 ;Reset Extruder
G1 Z2.0 F3000 ;Move Z Axis up
G1 X10.1 Y20 Z0.28 F5000.0 ;Move to start position
G1 X10.1 Y145.0 Z0.28 F1500.0 E15 ;Draw the first line
G1 X10.4 Y145.0 Z0.28 F5000.0 ;Move to side a little
G1 X10.4 Y20 Z0.28 F1500.0 E30 ;Draw the second line
G92 E0  ;Reset Extruder
G1 E-1.0000 F1800 ;Retract a bit
G1 Z2.0 F3000 ;Move Z Axis up
G1 E0.0000 F1800 

G92 E0
G92 E0
G1 F6000 E-8

;LAYER_COUNT:146

;LAYER:0
M107
G0 F3600 X137.151 Y136.797 Z0.15
;TYPE:SKIRT
G1 F6000 E0
G1 F1500 X137.597 Y136.451 E0.01549
G1 X138.1 Y136.194 E0.03099
G1 X138.642 Y136.037 E0.04647
G1 X139.204 Y135.984 E0.06196
G1 X139.766 Y136.037 E0.07745
G1 X140.309 Y136.194 E0.09296
G1 X140.812 Y136.451 E0.10846
G1 X141.258 Y136.797 E0.12395
G1 X141.631 Y137.22 E0.13942
G1 X141.904 Y137.661 E0.15366
G1 X141.922 Y137.138 E0.16802
G1 X142.045 Y136.587 E0.18351
G1 X142.27 Y136.069 E0.199
G1 X142.587 Y135.602 E0.21449
G1 X142.986 Y135.203 E0.22997
G1 X143.453 Y134.885 E0.24548
G1 X143.972 Y134.661 E0.26099
G1 X144.523 Y134.538 E0.27648
G1 X145.087 Y134.52 E0.29196
G1 X145.645 Y134.609 E0.30747
G1 X146.176 Y134.8 E0.32295
G1 X146.662 Y135.087 E0.33844
G1 X147.086 Y135.461 E0.35395
G1 X147.432 Y135.907 E0.36944
G1 X147.688 Y136.41 E0.38493
G1 X147.846 Y136.952 E0.40042
G1 X147.899 Y137.509 E0.41577
G1 X147.952 Y136.947 E0.43126
G1 X148.109 Y136.405 E0.44675
G1 X148.366 Y135.902 E0.46225
G1 X148.712 Y135.455 E0.47776
G1 X149.135 Y135.082 E0.49323
G1 X149.621 Y134.795 E0.50872
G1 X150.153 Y134.603 E0.52424
G1 X150.71 Y134.515 E0.53971
G1 X151.275 Y134.533 E0.55522
G1 X151.826 Y134.656 E0.57072
G1 X152.344 Y134.88 E0.5862
G1 X152.811 Y135.198 E0.6017
G1 X153.21 Y135.597 E0.61719
G1 X153.528 Y136.064 E0.63269
G1 X153.752 Y136.582 E0.64818
G1 X153.875 Y137.133 E0.66367
G1 X153.899 Y137.504 E0.67387
G1 X153.952 Y136.942 E0.68936
G1 X154.109 Y136.399 E0.70487
G1 X154.366 Y135.896 E0.72037
G1 X154.712 Y135.45 E0.73586
G1 X155.135 Y135.077 E0.75133
G1 X155.621 Y134.789 E0.76683
G1 X156.153 Y134.598 E0.78234
G1 X156.71 Y134.51 E0.79782
G1 X157.275 Y134.527 E0.81333
G1 X157.826 Y134.651 E0.82882
G1 X158.344 Y134.875 E0.84431
G1 X158.811 Y135.192 E0.8598
G1 X159.21 Y135.592 E0.8753
G1 X159.528 Y136.059 E0.8908
G1 X159.752 Y136.577 E0.90629
G1 X159.875 Y137.128 E0.92178
G1 X159.899 Y137.502 E0.93206
G1 X161.819 Y137.5 E0.98475
G1 X162.302 Y137.429 E0.99814
G1 X162.866 Y137.446 E1.01363
G1 X163.417 Y137.57 E1.02912
G1 X163.936 Y137.794 E1.04464
G1 X164.403 Y138.111 E1.06012
G1 X164.802 Y138.51 E1.07561
G1 X165.119 Y138.977 E1.09109
G1 X165.344 Y139.496 E1.10662
G1 X165.467 Y140.047 E1.12211
G1 X165.484 Y140.611 E1.13759
G1 X165.396 Y141.169 E1.15309
G1 X165.205 Y141.7 E1.16858
G1 X164.917 Y142.186 E1.18408
G1 X164.544 Y142.61 E1.19957
G1 X164.098 Y142.956 E1.21506
G1 X163.595 Y143.212 E1.23055
G1 X163.053 Y143.37 E1.24604
G1 X162.491 Y143.423 E1.26153
G1 X163.052 Y143.476 E1.27699
G1 X163.594 Y143.633 E1.29247
G1 X164.098 Y143.89 E1.308
G1 X164.544 Y144.236 E1.32349
G1 X164.917 Y144.659 E1.33896
G1 X165.205 Y145.145 E1.35446
G1 X165.396 Y145.677 E1.36997
G1 X165.484 Y146.234 E1.38545
G1 X165.466 Y146.799 E1.40096
G1 X165.343 Y147.35 E1.41645
G1 X165.119 Y147.868 E1.43194
G1 X164.802 Y148.335 E1.44742
G1 X164.402 Y148.734 E1.46293
G1 X163.935 Y149.052 E1.47843
G1 X163.417 Y149.276 E1.49392
G1 X162.866 Y149.399 E1.50941
G1 X162.49 Y149.423 E1.51974
G1 X163.052 Y149.476 E1.53523
G1 X163.594 Y149.633 E1.55072
G1 X164.097 Y149.89 E1.56622
G1 X164.543 Y150.236 E1.58171
G1 X164.917 Y150.659 E1.5972
G1 X165.204 Y151.145 E1.61269
G1 X165.396 Y151.677 E1.62821
G1 X165.484 Y152.234 E1.64368
G1 X165.466 Y152.799 E1.65919
G1 X165.343 Y153.35 E1.67468
G1 X165.119 Y153.868 E1.69017
G1 X164.801 Y154.335 E1.70567
G1 X164.402 Y154.734 E1.72115
G1 X163.935 Y155.052 E1.73666
G1 X163.417 Y155.276 E1.75214
G1 X162.866 Y155.399 E1.76763
G1 X162.49 Y155.423 E1.77797
G1 X162.501 Y155.863 E1.79005
G1 X163.052 Y155.986 E1.80554
G1 X163.57 Y156.21 E1.82103
G1 X164.037 Y156.528 E1.83653
G1 X164.436 Y156.927 E1.85201
G1 X164.754 Y157.394 E1.86752
G1 X164.978 Y157.912 E1.883
G1 X165.101 Y158.463 E1.89849
G1 X165.119 Y159.028 E1.91401
G1 X165.03 Y159.585 E1.92948
G1 X164.839 Y160.116 E1.94497
G1 X164.552 Y160.602 E1.96045
G1 X164.178 Y161.026 E1.97597
G1 X163.732 Y161.372 E1.99146
G1 X163.229 Y161.628 E2.00694
G1 X162.687 Y161.786 E2.02244
G1 X162.125 Y161.839 E2.03793
G1 X161.562 Y161.786 E2.05344
G1 X161.02 Y161.628 E2.06893
G1 X160.517 Y161.372 E2.08442
G1 X160.47 Y161.34 E2.08598
G1 X160.267 Y161.556 E2.09411
G1 X160.39 Y162.107 E2.10961
G1 X160.408 Y162.671 E2.12509
G1 X160.32 Y163.229 E2.14059
G1 X160.129 Y163.76 E2.15607
G1 X159.841 Y164.246 E2.17158
G1 X159.468 Y164.67 E2.18707
G1 X159.022 Y165.016 E2.20256
G1 X158.518 Y165.272 E2.21807
G1 X157.976 Y165.429 E2.23355
G1 X157.414 Y165.483 E2.24905
G1 X156.852 Y165.429 E2.26454
G1 X156.31 Y165.272 E2.28002
G1 X155.807 Y165.016 E2.29551
G1 X155.36 Y164.67 E2.31102
G1 X154.987 Y164.246 E2.32652
G1 X154.7 Y163.76 E2.342
G1 X154.508 Y163.229 E2.3575
G1 X154.42 Y162.671 E2.373
G1 X154.414 Y162.488 E2.37802
G1 X154.361 Y163.05 E2.39351
G1 X154.203 Y163.592 E2.409
G1 X153.947 Y164.095 E2.42449
G1 X153.601 Y164.542 E2.44
G1 X153.177 Y164.915 E2.4555
G1 X152.691 Y165.202 E2.47098
G1 X152.16 Y165.394 E2.48648
G1 X151.602 Y165.482 E2.50198
G1 X151.038 Y165.464 E2.51746
G1 X150.487 Y165.341 E2.53295
G1 X149.969 Y165.117 E2.54844
G1 X149.502 Y164.799 E2.56394
G1 X149.103 Y164.4 E2.57942
G1 X148.785 Y163.933 E2.59493
G1 X148.561 Y163.415 E2.61041
G1 X148.438 Y162.864 E2.6259
G1 X148.414 Y162.493 E2.63611
G1 X148.361 Y163.055 E2.6516
G1 X148.203 Y163.598 E2.66711
G1 X147.947 Y164.101 E2.6826
G1 X147.601 Y164.547 E2.69809
G1 X147.177 Y164.92 E2.71358
G1 X146.691 Y165.208 E2.72909
G1 X146.16 Y165.399 E2.74457
G1 X145.602 Y165.487 E2.76007
G1 X145.038 Y165.47 E2.77555
G1 X144.487 Y165.346 E2.79105
G1 X143.969 Y165.122 E2.80654
G1 X143.502 Y164.805 E2.82202
G1 X143.103 Y164.405 E2.83753
G1 X142.785 Y163.938 E2.85303
G1 X142.561 Y163.42 E2.86852
G1 X142.438 Y162.869 E2.88401
G1 X142.414 Y162.498 E2.89421
G1 X142.361 Y163.061 E2.90973
G1 X142.203 Y163.603 E2.92522
G1 X141.947 Y164.106 E2.9407
G1 X141.601 Y164.552 E2.95619
G1 X141.177 Y164.925 E2.97169
G1 X140.691 Y165.213 E2.98719
G1 X140.16 Y165.404 E3.00267
G1 X139.602 Y165.493 E3.01818
G1 X139.038 Y165.475 E3.03366
G1 X138.487 Y165.352 E3.04915
G1 X137.969 Y165.127 E3.06465
G1 X137.502 Y164.81 E3.08014
G1 X137.103 Y164.411 E3.09562
G1 X136.785 Y163.944 E3.11112
G1 X136.561 Y163.425 E3.12664
G1 X136.438 Y162.874 E3.14213
G1 X136.42 Y162.31 E3.15761
G1 X136.508 Y161.752 E3.17311
G1 X136.7 Y161.221 E3.18861
G1 X136.987 Y160.735 E3.20409
G1 X137.36 Y160.312 E3.21957
G1 X137.509 Y160.173 E3.22516
G1 X136.947 Y160.12 E3.24065
G1 X136.404 Y159.962 E3.25617
G1 X135.901 Y159.706 E3.27165
G1 X135.455 Y159.36 E3.28714
G1 X135.082 Y158.936 E3.30264
G1 X134.794 Y158.45 E3.31814
G1 X134.603 Y157.919 E3.33362
G1 X134.515 Y157.361 E3.34912
G1 X134.532 Y156.797 E3.36461
G1 X134.656 Y156.246 E3.3801
G1 X134.88 Y155.727 E3.39562
G1 X135.197 Y155.26 E3.4111
G1 X135.597 Y154.861 E3.42661
G1 X136.064 Y154.544 E3.44209
G1 X136.582 Y154.319 E3.45759
G1 X137.133 Y154.196 E3.47308
G1 X137.509 Y154.173 E3.48342
G1 X136.763 Y154.078 E3.50405
G1 X136.232 Y153.887 E3.51954
G1 X135.746 Y153.6 E3.53502
G1 X135.322 Y153.226 E3.55054
G1 X134.976 Y152.78 E3.56603
G1 X134.72 Y152.277 E3.58151
G1 X134.562 Y151.735 E3.59701
G1 X134.509 Y151.173 E3.6125
G1 X134.562 Y150.611 E3.62798
G1 X134.72 Y150.068 E3.6435
G1 X134.976 Y149.565 E3.65899
G1 X135.322 Y149.119 E3.67448
G1 X135.746 Y148.746 E3.68997
G1 X136.232 Y148.458 E3.70548
G1 X136.763 Y148.267 E3.72096
G1 X137.321 Y148.179 E3.73646
G1 X137.509 Y148.173 E3.74162
G1 X136.947 Y148.12 E3.75711
G1 X136.405 Y147.962 E3.7726
G1 X135.902 Y147.706 E3.78809
G1 X135.456 Y147.36 E3.80358
G1 X135.082 Y146.936 E3.81909
G1 X134.795 Y146.45 E3.83458
G1 X134.604 Y145.919 E3.85006
G1 X134.515 Y145.361 E3.86557
G1 X134.533 Y144.797 E3.88105
G1 X134.656 Y144.246 E3.89654
G1 X134.88 Y143.727 E3.91205
G1 X135.198 Y143.26 E3.92756
G1 X135.597 Y142.861 E3.94304
G1 X136.064 Y142.544 E3.95853
G1 X136.582 Y142.319 E3.97403
G1 X137.133 Y142.196 E3.98952
G1 X137.605 Y142.176 E4.00248
G1 X137.755 Y141.611 E4.01852
G1 X137.292 Y141.295 E4.0339
G1 X136.893 Y140.896 E4.04938
G1 X136.575 Y140.429 E4.06489
G1 X136.351 Y139.911 E4.08037
G1 X136.228 Y139.36 E4.09587
G1 X136.21 Y138.795 E4.11138
G1 X136.298 Y138.238 E4.12685
G1 X136.49 Y137.706 E4.14237
G1 X136.777 Y137.22 E4.15786
G1 X137.151 Y136.797 E4.17335
;;retract;;
G1 F6000 E-3.82665
;MESH:
G0 F3600 X155.391 Y155.498
G0 X154.354 Y154.636
;TYPE:WALL-INNER
G1 F6000 E4.17335
G1 F600 X153.863 Y156.014 E4.21349
G1 X154.372 Y157.384 E4.25359
G1 X155.643 Y158.107 E4.29372
G1 X157.08 Y157.844 E4.3338
G1 X158.013 Y156.718 E4.37393
G1 X158.003 Y155.257 E4.41402
G1 X157.057 Y154.143 E4.45412
G1 X155.617 Y153.898 E4.4942
G1 X154.354 Y154.636 E4.53434
G0 F3600 X154.682 Y154.908
;TYPE:WALL-OUTER
G1 F600 X154.289 Y156.011 E4.56647
G1 X154.696 Y157.108 E4.59858
G1 X155.714 Y157.687 E4.63071
G1 X156.865 Y157.477 E4.66282
G1 X157.612 Y156.575 E4.69495
G1 X157.604 Y155.405 E4.72706
G1 X156.846 Y154.513 E4.75918
G1 X155.693 Y154.317 E4.79127
G1 X154.682 Y154.908 E4.8234
G0 F3600 X154.615 Y155.096
G0 X154.202 Y154.948
;;retract;;
G1 F6000 E-3.1766
G0 F3600 X155.391 Y155.498
G0 X142.578 Y136.83
G0 X142.578 Y138.1
;TYPE:WALL-INNER
G1 F6000 E4.8234
G1 F1500 X161.9 Y138.1 E5.35359
G1 X161.9 Y157.422 E5.88378
G1 X161.287 Y159.695 E5.94838
G1 X159.681 Y161.294 E6.01056
G1 X157.422 Y161.9 E6.07474
G1 X138.1 Y161.9 E6.60493
G1 X138.1 Y142.578 E7.13512
G1 X138.713 Y140.305 E7.19972
G1 X140.319 Y138.706 E7.2619
G1 X142.578 Y138.1 E7.32608
G0 F3600 X142.526 Y137.7
;TYPE:WALL-OUTER
G1 F1500 X162.3 Y137.7 E7.86867
G1 X162.3 Y157.474 E8.41126
G1 X161.645 Y159.902 E8.48027
G1 X159.887 Y161.653 E8.54835
G1 X157.474 Y162.3 E8.6169
G1 X137.7 Y162.3 E9.15949
G1 X137.7 Y142.526 E9.70208
G1 X138.355 Y140.098 E9.77109
G1 X140.113 Y138.347 E9.83917
G1 X142.526 Y137.7 E9.90772
G0 F3600 X142.726 Y137.7
G0 X142.726 Y138.14
;;retract;;
G1 F6000 E1.90772
G0 F3600 X142.726 Y136.83
G0 X161.659 Y136.83
G0 X161.659 Y138.466
;TYPE:SKIN
G1 F6000 E9.90772
G1 F600 X161.533 Y138.34 E9.91261
G1 X160.967 Y138.34 E9.92814
G1 X161.659 Y139.032 E9.955
G1 X161.659 Y139.597 E9.9705
G1 X160.402 Y138.34 E10.01928
G1 X159.836 Y138.34 E10.03481
G1 X161.659 Y140.163 E10.10555
G1 X161.659 Y140.729 E10.12108
G1 X159.27 Y138.34 E10.21379
G1 X158.705 Y138.34 E10.22929
G1 X161.659 Y141.294 E10.34392
G1 X161.659 Y141.86 E10.35945
G1 X158.139 Y138.34 E10.49605
G1 X157.573 Y138.34 E10.51158
G1 X161.659 Y142.426 E10.67014
G1 X161.659 Y142.991 E10.68564
G1 F1500 X157.008 Y138.34 E10.86613
G1 F600 X156.442 Y138.34 E10.88166
G1 F1500 X161.659 Y143.557 E11.08411
G1 F600 X161.659 Y144.123 E11.09964
G1 F1500 X155.876 Y138.34 E11.32405
G1 F600 X155.311 Y138.34 E11.33955
G1 F1500 X161.659 Y144.688 E11.58589
G1 F600 X161.659 Y145.254 E11.60142
G1 F1500 X154.745 Y138.34 E11.86972
G1 F600 X154.179 Y138.34 E11.88525
G1 F1500 X161.659 Y145.82 E12.17552
G1 F600 X161.659 Y146.385 E12.19102
G1 F1500 X153.613 Y138.34 E12.50323
G1 F600 X153.048 Y138.34 E12.51873
G1 F1500 X161.659 Y146.951 E12.85289
G1 F600 X161.659 Y147.517 E12.86842
G1 F1500 X152.482 Y138.34 E13.22454
G1 F600 X151.916 Y138.34 E13.24007
G1 F1500 X161.659 Y148.083 E13.61815
G1 F600 X161.659 Y148.648 E13.63365
G1 F1500 X151.351 Y138.34 E14.03366
G1 F600 X150.785 Y138.34 E14.04919
G1 F1500 X161.659 Y149.214 E14.47116
G1 F600 X161.659 Y149.78 E14.48669
G1 F1500 X150.219 Y138.34 E14.93063
G1 F600 X149.654 Y138.34 E14.94613
G1 F1500 X161.659 Y150.345 E15.41199
G1 F600 X161.659 Y150.911 E15.42752
G1 F1500 X149.088 Y138.34 E15.91534
G1 F600 X148.522 Y138.34 E15.93087
G1 F1500 X161.659 Y151.477 E16.44066
G1 F600 X161.659 Y152.042 E16.45617
G1 F1500 X147.957 Y138.34 E16.98788
G1 F600 X147.391 Y138.34 E17.00341
G1 F1500 X161.659 Y152.608 E17.55708
G1 F600 X161.659 Y153.174 E17.57262
G1 F1500 X146.825 Y138.34 E18.14826
G1 F600 X146.26 Y138.34 E18.16376
G1 F1500 X161.659 Y153.739 E18.76132
G1 F600 X161.659 Y154.305 E18.77686
G1 F1500 X145.694 Y138.34 E19.39639
G1 F600 X145.128 Y138.34 E19.41192
G1 F1500 X161.659 Y154.871 E20.05341
G1 F600 X161.659 Y155.436 E20.06891
G1 F1500 X144.563 Y138.34 E20.73233
G1 F600 X143.997 Y138.34 E20.74786
G1 F1500 X161.659 Y156.002 E21.43324
G1 F600 X161.659 Y156.568 E21.44877
G1 F1500 X143.431 Y138.34 E22.15612
G1 F600 X142.865 Y138.34 E22.17165
G1 F1500 X161.659 Y157.133 E22.90094
G1 F600 X161.659 Y157.389 E22.90797
G1 X161.593 Y157.633 E22.9149
G1 F1500 X142.365 Y138.405 E23.66105
G1 F600 X141.919 Y138.525 E23.67373
G1 F1500 X161.473 Y158.079 E24.43253
G1 F600 X161.353 Y158.525 E24.4452
G1 X158.242 Y155.414 E24.56593
G1 X158.246 Y155.983 E24.58154
G1 X161.233 Y158.971 E24.69747
G1 X161.113 Y159.416 E24.71012
G1 X158.25 Y156.553 E24.82122
G1 X158.252 Y156.803 E24.82808
G1 X158.108 Y156.976 E24.83426
