;FLAVOR:Marlin
;TIME:4011
;Filament used:2.19938m
;Layer height: 0.15
;MINX:137.009
;MINY:137.01
;MINZ:0.15
;MAXX:162.984
;MAXY:162.989
;MAXZ:27
                              
;Creality Print GCode Generated by CXEngine:NO_MAGE_VERSION_GIT_HEAD_BRANCH
;CXEngine Release Time:2022-09-30 09:53:04
;Gcode Generated Time:2023-11-14 21:26:56
;----------Machine Config--------------
;Machine Name:Creality Ender-3 S1 Plus
;Machine Height:300
;Machine Width:300
;Machine Depth:300
;Material name:PLA
;Number of Extruders:1
;ExtruderParams[0] Nozzle Diameter1000
;----------Profile Config---------------
;Engine Version:275f99b
;Engine Release Time:2022-09-30 09:42:18
;Layer Height:0.15
;Wall Thickness:0.8
;Top/Bottom Thickness:1
;Out Wall Line Width:0.4
;Inner Wall Line Width:0.4
;Inital Layer Height:150
;Wall Line Count:2
;Infill Line Distance:0.8
;Infill Pattern:lines
;Infill Sparse Density:50
;Infill Wipe Distance:0
;Print Temperature:200
;Bed Temperature:60
;Support Enable:true
;Support Density:40
;Support Angle:60
;Adhesion Type:lace
;machine is belt:false
;machine belt offset:10
;machine belt offset Y:0
;Raft Base Line Spacing:1.6
;Wait Heatup Sync:true
;----------Shell Config----------------
;Outer Wall Wipe Distance:200
;Outer Inset First:false
;Infill Before Walls:false
;Infill Overlap:0.2
;Fill Gaps Between Walls:everywhere
;Minimum Infill Area:1
;Top Surface Skin Layer:0
;Top Layers:4
;Z Seam Alignment:sharpest_corner
;Seam Corner Preference:z_seam_corner_inner
;Z Seam X:150
;Z Seam Y:150
;Horizontal Expansion:0
;Top/Bottom Pattern:zigzag
;Ironing Pattern:zigzag
;Vase Model:false
;----------Support Config----------------
;Support Type:everywhere
;Support Pattern:grid
;Support Infill Layer Thickness:0.15
;Minimum Support Area:5
;Enable Support Roof:false
;Support Roof Thickness:0.8
;Support Roof Pattern:lines
;Connect Support Lines:0
;Connect Support ZigZags:1
;Minimum Support X/Y Distance:0.2
;Support Line Distance:2
; ---------PrintSpeed & Travel----------
;Enable Print Cool:true
;Avoid Printed Parts Traveling:true
;Enable Retraction:true
;Retraction Distance:8
;Retraction Speed:100
;Retraction Prime Speed:100
;Maximum Retraction Count:100
;Minimum Extrusion Distance Window:1
;Z Hop When Retracted:false
;Z Hop Height:0.2
;Retract Before Outer Wall:true
;Print Speed:50
;Infill Speed:50

;Prime Tower Speed:50
;Travel Speed:120
;Initial Layer Speed:25
;Skirt/Brim Speed:25
;Combing Mode:infill
; --------SpecialModel&Mesh Fixes--------
;Union Overlapping Volum:true
;Remove All Holes:false
;Maximum Travel Resolution:0.25
;Maximum Deviation:0.05
;Maximum Model Angle:0.872665
;IS Mold Print:false
;Make Overhang Printable:false
;Enable Coasting:false
;Coasting Volumes:0.06
;Coasting Speed:0.9
;Raft AirGap:0.25
;Layer0 ZOverLap:0.13
;---------------------End of Head--------------------------
M140 S60
M105
M104 S200
M105
M109 S200
M105
M190 S60
M82 ;absolute extrusion mode
M220 S100 ;Reset Feedrate
M221 S100 ;Reset Flowrate

G28 ;Home

G92 E0 ;Reset Extruder
G1 Z2.0 F3000 ;Move Z Axis up
G1 X10.1 Y20 Z0.28 F5000.0 ;Move to start position
G1 X10.1 Y145.0 Z0.28 F1500.0 E15 ;Draw the first line
G1 X10.4 Y145.0 Z0.28 F5000.0 ;Move to side a little
G1 X10.4 Y20 Z0.28 F1500.0 E30 ;Draw the second line
G92 E0  ;Reset Extruder
G1 E-1.0000 F1800 ;Retract a bit
G1 Z2.0 F3000 ;Move Z Axis up
G1 E0.0000 F1800 

G92 E0
G92 E0
G1 F6000 E-8

;LAYER_COUNT:180

;LAYER:0
M107
G0 F3600 X141.158 Y138.306 Z0.15
;;retract;;
G0 X160.159 Y139.334
G0 X161.903 Y140.611
;TYPE:SKIRT
G1 F6000 E0
G1 F1500 X162.302 Y141.01 E0.01548
G1 X162.619 Y141.477 E0.03097
G1 X162.843 Y141.996 E0.04648
G1 X162.967 Y142.547 E0.06198
G1 X162.984 Y143.111 E0.07746
G1 X162.896 Y143.669 E0.09296
G1 X162.705 Y144.2 E0.10845
G1 X162.417 Y144.686 E0.12395
G1 X162.044 Y145.11 E0.13944
G1 X161.598 Y145.456 E0.15493
G1 X161.095 Y145.712 E0.17042
G1 X160.552 Y145.87 E0.18594
G1 X159.991 Y145.923 E0.2014
G1 X160.552 Y145.976 E0.21686
G1 X161.094 Y146.133 E0.23235
G1 X161.597 Y146.39 E0.24784
G1 X162.044 Y146.736 E0.26336
G1 X162.417 Y147.159 E0.27883
G1 X162.704 Y147.645 E0.29432
G1 X162.896 Y148.177 E0.30984
G1 X162.984 Y148.734 E0.32531
G1 X162.966 Y149.299 E0.34082
G1 X162.843 Y149.85 E0.35631
G1 X162.619 Y150.368 E0.3718
G1 X162.301 Y150.835 E0.3873
G1 X161.902 Y151.234 E0.40279
G1 X161.435 Y151.552 E0.41829
G1 X160.917 Y151.776 E0.43377
G1 X160.366 Y151.899 E0.44927
G1 X159.99 Y151.923 E0.4596
G1 X160.552 Y151.976 E0.47509
G1 X161.094 Y152.133 E0.49058
G1 X161.597 Y152.39 E0.50608
G1 X162.043 Y152.736 E0.52157
G1 X162.417 Y153.159 E0.53706
G1 X162.704 Y153.645 E0.55255
G1 X162.895 Y154.177 E0.56806
G1 X162.984 Y154.734 E0.58353
G1 X162.966 Y155.299 E0.59905
G1 X162.843 Y155.85 E0.61454
G1 X162.618 Y156.368 E0.63003
G1 X162.301 Y156.835 E0.64552
G1 X161.902 Y157.234 E0.661
G1 X161.435 Y157.552 E0.67651
G1 X160.917 Y157.776 E0.69199
G1 X160.366 Y157.899 E0.70748
G1 X159.801 Y157.917 E0.723
G1 X159.243 Y157.828 E0.7385
G1 X159.045 Y157.77 E0.74416
G1 X158.858 Y157.956 E0.7514
G1 X159.082 Y158.347 E0.76376
G1 X159.273 Y158.879 E0.77927
G1 X159.361 Y159.436 E0.79475
G1 X159.343 Y160.001 E0.81026
G1 X159.22 Y160.552 E0.82575
G1 X158.996 Y161.07 E0.84124
G1 X158.679 Y161.537 E0.85672
G1 X158.279 Y161.936 E0.87223
G1 X157.812 Y162.254 E0.88773
G1 X157.294 Y162.478 E0.90322
G1 X156.743 Y162.601 E0.91871
G1 X156.179 Y162.619 E0.93419
G1 X155.621 Y162.53 E0.9497
G1 X155.09 Y162.339 E0.96518
G1 X154.604 Y162.052 E0.98067
G1 X154.18 Y161.678 E0.99618
G1 X153.834 Y161.232 E1.01167
G1 X153.578 Y160.729 E1.02716
G1 X153.42 Y160.187 E1.04265
G1 X153.388 Y159.988 E1.04818
G1 X153.335 Y160.55 E1.06367
G1 X153.178 Y161.092 E1.07915
G1 X152.921 Y161.595 E1.09465
G1 X152.575 Y162.042 E1.11016
G1 X152.152 Y162.415 E1.12564
G1 X151.666 Y162.702 E1.14112
G1 X151.135 Y162.894 E1.15662
G1 X150.577 Y162.982 E1.17212
G1 X150.012 Y162.964 E1.18763
G1 X149.461 Y162.841 E1.20312
G1 X148.943 Y162.617 E1.21861
G1 X148.476 Y162.3 E1.23409
G1 X148.077 Y161.9 E1.2496
G1 X147.76 Y161.433 E1.26508
G1 X147.535 Y160.915 E1.28058
G1 X147.412 Y160.364 E1.29607
G1 X147.388 Y159.995 E1.30622
G1 X147.335 Y160.557 E1.32171
G1 X147.178 Y161.099 E1.33719
G1 X146.921 Y161.603 E1.35272
G1 X146.575 Y162.049 E1.36821
G1 X146.152 Y162.422 E1.38368
G1 X145.666 Y162.71 E1.39918
G1 X145.135 Y162.901 E1.41467
G1 X144.577 Y162.989 E1.43017
G1 X144.012 Y162.971 E1.44568
G1 X143.461 Y162.848 E1.46117
G1 X142.943 Y162.624 E1.47665
G1 X142.476 Y162.307 E1.49214
G1 X142.077 Y161.907 E1.50765
G1 X141.76 Y161.44 E1.52313
G1 X141.535 Y160.922 E1.53863
G1 X141.412 Y160.371 E1.55412
G1 X141.37 Y159.999 E1.56439
G1 X140.936 Y160.181 E1.57731
G1 X140.385 Y160.304 E1.5928
G1 X139.82 Y160.322 E1.60831
G1 X139.263 Y160.233 E1.62379
G1 X138.731 Y160.042 E1.6393
G1 X138.245 Y159.755 E1.65478
G1 X137.822 Y159.381 E1.67028
G1 X137.476 Y158.935 E1.68577
G1 X137.219 Y158.432 E1.70127
G1 X137.062 Y157.89 E1.71675
G1 X137.009 Y157.328 E1.73224
G1 X137.062 Y156.765 E1.74776
G1 X137.219 Y156.223 E1.76324
G1 X137.476 Y155.72 E1.77874
G1 X137.822 Y155.274 E1.79423
G1 X138.245 Y154.901 E1.8097
G1 X138.731 Y154.613 E1.8252
G1 X139.263 Y154.422 E1.84071
G1 X139.82 Y154.333 E1.85619
G1 X140.009 Y154.328 E1.86138
G1 X139.263 Y154.233 E1.88202
G1 X138.732 Y154.042 E1.8975
G1 X138.246 Y153.755 E1.91299
G1 X137.822 Y153.381 E1.9285
G1 X137.476 Y152.935 E1.94399
G1 X137.22 Y152.432 E1.95948
G1 X137.062 Y151.89 E1.97497
G1 X137.009 Y151.328 E1.99046
G1 X137.062 Y150.765 E2.00597
G1 X137.22 Y150.223 E2.02147
G1 X137.476 Y149.72 E2.03695
G1 X137.822 Y149.274 E2.05244
G1 X138.246 Y148.901 E2.06794
G1 X138.732 Y148.613 E2.08344
G1 X139.263 Y148.422 E2.09892
G1 X139.821 Y148.333 E2.11443
G1 X140.009 Y148.328 E2.11959
G1 X139.447 Y148.274 E2.13508
G1 X138.905 Y148.117 E2.15056
G1 X138.402 Y147.861 E2.16605
G1 X137.956 Y147.514 E2.18156
G1 X137.582 Y147.091 E2.19705
G1 X137.295 Y146.605 E2.21254
G1 X137.104 Y146.074 E2.22802
G1 X137.015 Y145.516 E2.24353
G1 X137.033 Y144.952 E2.25901
G1 X137.156 Y144.401 E2.2745
G1 X137.381 Y143.882 E2.29002
G1 X137.698 Y143.415 E2.30551
G1 X138.097 Y143.016 E2.32099
G1 X138.564 Y142.699 E2.33648
G1 X139.082 Y142.474 E2.35198
G1 X139.633 Y142.351 E2.36747
G1 X140.198 Y142.333 E2.38298
G1 X140.762 Y142.424 E2.39866
G1 X140.848 Y142.338 E2.40199
G1 X140.582 Y141.938 E2.41518
G1 X140.358 Y141.42 E2.43066
G1 X140.235 Y140.868 E2.44618
G1 X140.217 Y140.304 E2.46166
G1 X140.306 Y139.746 E2.47717
G1 X140.497 Y139.215 E2.49265
G1 X140.784 Y138.729 E2.50814
G1 X141.158 Y138.306 E2.52363
G1 X141.604 Y137.959 E2.53914
G1 X142.107 Y137.703 E2.55463
G1 X142.649 Y137.546 E2.57011
G1 X143.211 Y137.492 E2.5856
G1 X143.773 Y137.546 E2.60109
G1 X144.316 Y137.703 E2.6166
G1 X144.819 Y137.959 E2.63209
G1 X145.265 Y138.306 E2.6476
G1 X145.638 Y138.729 E2.66307
G1 X145.926 Y139.215 E2.67857
G1 X146.117 Y139.746 E2.69406
G1 X146.174 Y140.012 E2.70152
G1 X146.228 Y139.449 E2.71704
G1 X146.385 Y138.907 E2.73252
G1 X146.641 Y138.404 E2.74801
G1 X146.988 Y137.958 E2.76352
G1 X147.411 Y137.584 E2.77901
G1 X147.897 Y137.297 E2.7945
G1 X148.428 Y137.106 E2.80998
G1 X148.986 Y137.017 E2.82549
G1 X149.55 Y137.035 E2.84097
G1 X150.101 Y137.158 E2.85646
G1 X150.62 Y137.383 E2.87198
G1 X151.087 Y137.7 E2.88747
G1 X151.486 Y138.099 E2.90296
G1 X151.803 Y138.566 E2.91844
G1 X152.028 Y139.084 E2.93394
G1 X152.151 Y139.636 E2.94946
G1 X152.174 Y140.004 E2.95958
G1 X152.228 Y139.442 E2.97507
G1 X152.385 Y138.9 E2.99055
G1 X152.641 Y138.397 E3.00604
G1 X152.988 Y137.951 E3.02154
G1 X153.411 Y137.577 E3.03704
G1 X153.897 Y137.29 E3.05252
G1 X154.428 Y137.099 E3.06801
G1 X154.986 Y137.01 E3.08351
G1 X155.55 Y137.028 E3.099
G1 X156.101 Y137.151 E3.11449
G1 X156.62 Y137.375 E3.13
G1 X157.087 Y137.693 E3.1455
G1 X157.486 Y138.092 E3.16099
G1 X157.803 Y138.559 E3.17647
G1 X158.028 Y139.077 E3.19197
G1 X158.151 Y139.628 E3.20746
G1 X158.174 Y140.001 E3.21772
G1 X159.319 Y140 E3.24913
G1 X159.802 Y139.929 E3.26253
G1 X160.366 Y139.946 E3.27801
G1 X160.917 Y140.07 E3.29351
G1 X161.436 Y140.294 E3.30902
G1 X161.903 Y140.611 E3.32451
;;retract;;
G1 F6000 E-4.67549
;MESH:
G0 F3600 X154.241 Y153.226
G0 X155.506 Y152.76
;TYPE:WALL-INNER
G1 F6000 E3.32451
G1 F600 X154.561 Y151.644 E3.36464
G1 X153.12 Y151.397 E3.40475
G1 X151.857 Y152.134 E3.44488
G1 X151.362 Y153.509 E3.48498
G1 X151.869 Y154.881 E3.52511
G1 X153.139 Y155.607 E3.56525
G1 X154.576 Y155.347 E3.60532
G1 X155.511 Y154.223 E3.64544
G1 X155.506 Y152.76 E3.68559
G0 F3600 X155.107 Y152.907
;TYPE:WALL-OUTER
G1 F600 X154.35 Y152.014 E3.71771
G1 X153.196 Y151.816 E3.74984
G1 X152.184 Y152.406 E3.78198
G1 X151.788 Y153.507 E3.81409
G1 X152.194 Y154.606 E3.84624
G1 X153.211 Y155.187 E3.87837
G1 X154.362 Y154.979 E3.91047
G1 X155.111 Y154.079 E3.9426
G1 X155.107 Y152.907 E3.97476
G0 F3600 X154.978 Y152.755
G0 X155.314 Y152.472
;;retract;;
G1 F6000 E-4.02524
G0 F3600 X154.241 Y153.226
G0 X160.668 Y154.922
G0 X159.4 Y154.922
;TYPE:WALL-INNER
G1 F6000 E3.97476
G1 F1500 X158.787 Y157.195 E4.03936
G1 X157.181 Y158.794 E4.10154
G1 X154.922 Y159.4 E4.16572
G1 X140.6 Y159.4 E4.55871
G1 X140.6 Y145.078 E4.9517
G1 X141.213 Y142.805 E5.0163
G1 X142.819 Y141.206 E5.07848
G1 X145.078 Y140.6 E5.14266
G1 X159.4 Y140.6 E5.53565
G1 X159.4 Y154.922 E5.92864
G0 F3600 X159.8 Y154.974
;TYPE:WALL-OUTER
G1 F1500 X159.145 Y157.402 E5.99765
G1 X157.387 Y159.153 E6.06573
G1 X154.974 Y159.8 E6.13428
G1 X140.2 Y159.8 E6.53968
G1 X140.2 Y145.026 E6.94507
G1 X140.855 Y142.598 E7.01407
G1 X142.613 Y140.847 E7.08216
G1 X145.026 Y140.2 E7.15071
G1 X159.8 Y140.2 E7.5561
G1 X159.8 Y154.974 E7.96149
G0 F3600 X159.748 Y155.167
G0 X159.325 Y155.052
;;retract;;
G1 F6000 E-0.03851
G0 F3600 X160.586 Y155.398
G0 X153.892 Y152.815
G0 X154.687 Y151.421
;TYPE:SKIN
G1 F6000 E7.96149
G1 F600 X155.745 Y152.67 E8.00641
G1 X155.745 Y152.917 E8.01319
G1 X155.747 Y153.484 E8.02875
G1 X158.733 Y156.47 E8.14462
G1 X158.613 Y156.916 E8.15729
G1 X155.748 Y154.051 E8.26847
G1 X155.75 Y154.309 E8.27555
G1 X155.609 Y154.478 E8.28159
G1 X158.386 Y157.254 E8.38933
G1 X158.102 Y157.537 E8.40033
G1 X155.352 Y154.786 E8.50707
G1 X155.095 Y155.095 E8.5181
G1 X157.819 Y157.819 E8.6238
G1 X157.535 Y158.101 E8.63478
G1 X154.838 Y155.404 E8.73944
G1 X154.704 Y155.567 E8.74523
G1 X154.477 Y155.608 E8.75156
G1 X157.252 Y158.383 E8.85925
G1 X157.056 Y158.578 E8.86683
G1 X156.918 Y158.615 E8.87075
G1 X153.997 Y155.695 E8.98409
G1 X153.519 Y155.781 E8.99741
G1 X156.472 Y158.734 E9.112
G1 X156.025 Y158.854 E9.1247
G1 X152.941 Y155.769 E9.2444
G0 F3600 X151.675 Y155.046
G1 F600 X151.356 Y154.185 E9.26959
G1 X151.106 Y153.509 E9.28937
G1 X151.144 Y153.406 E9.29238
G1 F1500 X141.265 Y143.528 E9.67572
G1 F600 X141.386 Y143.083 E9.68838
G1 F1500 X151.293 Y152.99 E10.07282
G1 F600 X151.443 Y152.574 E10.08496
G1 F1500 X141.612 Y142.744 E10.46644
G1 F600 X141.896 Y142.462 E10.47742
G1 F1500 X151.593 Y152.158 E10.85369
G1 F600 X151.66 Y151.969 E10.8592
G1 X151.855 Y151.855 E10.86539
G1 F1500 X142.18 Y142.18 E11.24084
G1 F600 X142.463 Y141.897 E11.25182
G1 F1500 X152.213 Y151.647 E11.63017
G1 F600 X152.57 Y151.438 E11.64152
G1 F1500 X142.747 Y141.615 E12.02271
G1 F600 X142.942 Y141.42 E12.03028
G1 X143.08 Y141.383 E12.0342
G1 F1500 X152.928 Y151.231 E12.41635
G1 F600 X153.073 Y151.146 E12.42097
G1 X153.477 Y151.214 E12.43221
G1 F1500 X143.527 Y141.264 E12.81832
G1 F600 X143.973 Y141.144 E12.831
G1 F1500 X154.159 Y151.331 E13.22629
G0 F3600 X155.745 Y152.917
G1 F600 X158.853 Y156.025 E13.34689
G1 X158.973 Y155.579 E13.35957
G1 F1500 X144.419 Y141.025 E13.92434
G1 F600 X144.865 Y140.905 E13.93702
G1 F1500 X159.094 Y155.134 E14.48918
G1 F600 X159.159 Y154.889 E14.49613
G1 X159.159 Y154.634 E14.50313
G1 F1500 X145.365 Y140.84 E15.03841
G1 F600 X145.931 Y140.84 E15.05395
G1 F1500 X159.159 Y154.068 E15.56726
G1 F600 X159.159 Y153.502 E15.58279
G1 F1500 X146.496 Y140.84 E16.07417
G1 F600 X147.062 Y140.84 E16.0897
G1 F1500 X159.159 Y152.937 E16.55913
G1 F600 X159.159 Y152.371 E16.57466
G1 F1500 X147.628 Y140.84 E17.02213
G1 F600 X148.194 Y140.84 E17.03766
G1 F1500 X159.159 Y151.805 E17.46316
G1 F600 X159.159 Y151.24 E17.47866
G1 F1500 X148.759 Y140.84 E17.88224
G1 F600 X149.325 Y140.84 E17.89777
G1 F1500 X159.159 Y150.674 E18.27938
G1 F600 X159.159 Y150.108 E18.29491
G1 F1500 X149.891 Y140.84 E18.65456
G1 F600 X150.456 Y140.84 E18.67007
G1 F1500 X159.159 Y149.543 E19.00779
G1 F600 X159.159 Y148.977 E19.02332
G1 F1500 X151.022 Y140.84 E19.33908
G1 F600 X151.588 Y140.84 E19.35461
G1 F1500 X159.159 Y148.411 E19.64841
G1 F600 X159.159 Y147.846 E19.66391
G1 F1500 X152.153 Y140.84 E19.93578
G1 F600 X152.719 Y140.84 E19.95131
G1 F1500 X159.159 Y147.28 E20.20122
G1 F600 X159.159 Y146.714 E20.21675
G1 F1500 X153.285 Y140.84 E20.4447
G1 F600 X153.85 Y140.84 E20.4602
G1 F1500 X159.159 Y146.149 E20.66622
G1 F600 X159.159 Y145.583 E20.68175
G1 F1500 X154.416 Y140.84 E20.8658
G1 F600 X154.982 Y140.84 E20.88133
G1 X159.159 Y145.017 E21.04342
G1 X159.159 Y144.452 E21.05893
G1 X155.547 Y140.84 E21.19909
G1 X156.113 Y140.84 E21.21462
G1 X159.159 Y143.886 E21.33282
G1 X159.159 Y143.32 E21.34836
G1 X156.679 Y140.84 E21.44459
G1 X157.244 Y140.84 E21.4601
G1 X159.159 Y142.754 E21.53439
G1 X159.159 Y142.189 E21.54989
G1 X157.81 Y140.84 E21.60224
G1 X158.376 Y140.84 E21.61777
G1 X159.159 Y141.623 E21.64816
G1 X159.159 Y141.057 E21.66369
G1 X158.942 Y140.84 E21.67211
G1 X159.159 Y140.84 E21.67806
;;retract;;
G1 F6000 E13.67806
G0 F3600 X160.67 Y140.84
G0 X152.712 Y153.503
G0 X151.356 Y154.185
G1 F6000 E21.67806
G1 F1500 X141.145 Y143.974 E22.07431
G1 F600 X141.025 Y144.419 E22.08695
G1 F1500 X155.579 Y158.973 E22.65173
G1 F600 X155.133 Y159.093 E22.6644
G1 F1500 X140.905 Y144.864 E23.21654
G1 F600 X140.84 Y145.109 E23.2235
G1 X140.84 Y145.365 E23.23052
G1 F1500 X154.633 Y159.159 E23.76579
G1 F600 X154.067 Y159.159 E23.78132
G1 F1500 X140.84 Y145.931 E24.29462
G1 F600 X140.84 Y146.496 E24.31012
G1 F1500 X153.502 Y159.159 E24.8015
G1 F600 X152.936 Y159.159 E24.81703
G1 F1500 X140.84 Y147.062 E25.28644
G1 F600 X140.84 Y147.628 E25.30197
