;FLAVOR:Marlin
;TIME:858
;Filament used:0.311023m
;Layer height: 0.15
;MINX:117.009
;MINY:143.006
;MINZ:0.15
;MAXX:182.985
;MAXY:156.928
;MAXZ:6
                              
;Creality Print GCode Generated by CXEngine:NO_MAGE_VERSION_GIT_HEAD_BRANCH
;CXEngine Release Time:2022-09-30 09:53:04
;Gcode Generated Time:2023-11-14 21:04:33
;----------Machine Config--------------
;Machine Name:Creality Ender-3 S1 Plus
;Machine Height:300
;Machine Width:300
;Machine Depth:300
;Material name:PLA
;Number of Extruders:1
;ExtruderParams[0] Nozzle Diameter1000
;----------Profile Config---------------
;Engine Version:275f99b
;Engine Release Time:2022-09-30 09:42:18
;Layer Height:0.15
;Wall Thickness:0.8
;Top/Bottom Thickness:1
;Out Wall Line Width:0.4
;Inner Wall Line Width:0.4
;Inital Layer Height:150
;Wall Line Count:2
;Infill Line Distance:0.8
;Infill Pattern:lines
;Infill Sparse Density:50
;Infill Wipe Distance:0
;Print Temperature:200
;Bed Temperature:60
;Support Enable:true
;Support Density:40
;Support Angle:60
;Adhesion Type:lace
;machine is belt:false
;machine belt offset:10
;machine belt offset Y:0
;Raft Base Line Spacing:1.6
;Wait Heatup Sync:true
;----------Shell Config----------------
;Outer Wall Wipe Distance:200
;Outer Inset First:false
;Infill Before Walls:false
;Infill Overlap:0.2
;Fill Gaps Between Walls:everywhere
;Minimum Infill Area:1
;Top Surface Skin Layer:0
;Top Layers:4
;Z Seam Alignment:sharpest_corner
;Seam Corner Preference:z_seam_corner_inner
;Z Seam X:150
;Z Seam Y:150
;Horizontal Expansion:0
;Top/Bottom Pattern:zigzag
;Ironing Pattern:zigzag
;Vase Model:false
;----------Support Config----------------
;Support Type:everywhere
;Support Pattern:grid
;Support Infill Layer Thickness:0.15
;Minimum Support Area:5
;Enable Support Roof:false
;Support Roof Thickness:0.8
;Support Roof Pattern:lines
;Connect Support Lines:0
;Connect Support ZigZags:1
;Minimum Support X/Y Distance:0.2
;Support Line Distance:2
; ---------PrintSpeed & Travel----------
;Enable Print Cool:true
;Avoid Printed Parts Traveling:true
;Enable Retraction:true
;Retraction Distance:8
;Retraction Speed:100
;Retraction Prime Speed:100
;Maximum Retraction Count:100
;Minimum Extrusion Distance Window:1
;Z Hop When Retracted:false
;Z Hop Height:0.2
;Retract Before Outer Wall:true
;Print Speed:50
;Infill Speed:50

;Prime Tower Speed:50
;Travel Speed:120
;Initial Layer Speed:25
;Skirt/Brim Speed:25
;Combing Mode:infill
; --------SpecialModel&Mesh Fixes--------
;Union Overlapping Volum:true
;Remove All Holes:false
;Maximum Travel Resolution:0.25
;Maximum Deviation:0.05
;Maximum Model Angle:0.872665
;IS Mold Print:false
;Make Overhang Printable:false
;Enable Coasting:false
;Coasting Volumes:0.06
;Coasting Speed:0.9
;Raft AirGap:0.25
;Layer0 ZOverLap:0.13
;---------------------End of Head--------------------------
M140 S60
M105
M104 S200
M105
M109 S200
M105
M190 S60
M82 ;absolute extrusion mode
M220 S100 ;Reset Feedrate
M221 S100 ;Reset Flowrate

G28 ;Home

G92 E0 ;Reset Extruder
G1 Z2.0 F3000 ;Move Z Axis up
G1 X10.1 Y20 Z0.28 F5000.0 ;Move to start position
G1 X10.1 Y145.0 Z0.28 F1500.0 E15 ;Draw the first line
G1 X10.4 Y145.0 Z0.28 F5000.0 ;Move to side a little
G1 X10.4 Y20 Z0.28 F1500.0 E30 ;Draw the second line
G92 E0  ;Reset Extruder
G1 E-1.0000 F1800 ;Retract a bit
G1 Z2.0 F3000 ;Move Z Axis up
G1 E0.0000 F1800 

G92 E0
G92 E0
G1 F6000 E-8

;LAYER_COUNT:40

;LAYER:0
M107
G0 F3600 X119.846 Y143.821 Z0.15
;TYPE:SKIRT
G1 F6000 E0
G1 F1500 X120.292 Y143.475 E0.01549
G1 X120.796 Y143.219 E0.031
G1 X121.338 Y143.061 E0.04649
G1 X121.9 Y143.008 E0.06198
G1 X122.462 Y143.061 E0.07747
G1 X123.004 Y143.219 E0.09296
G1 X123.507 Y143.475 E0.10845
G1 X123.954 Y143.821 E0.12396
G1 X124.327 Y144.245 E0.13946
G1 X124.614 Y144.731 E0.15494
G1 X124.806 Y145.262 E0.17044
G1 X124.894 Y145.82 E0.18594
G1 X124.9 Y146.007 E0.19107
G1 X124.953 Y145.445 E0.20656
G1 X125.111 Y144.903 E0.22205
G1 X125.367 Y144.4 E0.23754
G1 X125.713 Y143.954 E0.25303
G1 X126.137 Y143.58 E0.26854
G1 X126.623 Y143.293 E0.28403
G1 X127.154 Y143.102 E0.29951
G1 X127.712 Y143.013 E0.31502
G1 X128.276 Y143.031 E0.3305
G1 X128.827 Y143.154 E0.34599
G1 X129.345 Y143.378 E0.36148
G1 X129.812 Y143.696 E0.37698
G1 X130.211 Y144.095 E0.39246
G1 X130.529 Y144.562 E0.40797
G1 X130.753 Y145.08 E0.42345
G1 X130.876 Y145.631 E0.43894
G1 X130.9 Y146.006 E0.44926
G1 X130.953 Y145.444 E0.46475
G1 X131.111 Y144.902 E0.48024
G1 X131.367 Y144.399 E0.49572
G1 X131.713 Y143.953 E0.51121
G1 X132.137 Y143.579 E0.52673
G1 X132.623 Y143.292 E0.54221
G1 X133.154 Y143.101 E0.5577
G1 X133.712 Y143.012 E0.5732
G1 X134.276 Y143.03 E0.58869
G1 X134.827 Y143.153 E0.60418
G1 X135.345 Y143.377 E0.61966
G1 X135.812 Y143.695 E0.63517
G1 X136.211 Y144.094 E0.65065
G1 X136.529 Y144.561 E0.66615
G1 X136.753 Y145.079 E0.68164
G1 X136.876 Y145.63 E0.69713
G1 X136.9 Y146.005 E0.70744
G1 X136.953 Y145.443 E0.72293
G1 X137.111 Y144.901 E0.73842
G1 X137.367 Y144.398 E0.75391
G1 X137.713 Y143.952 E0.7694
G1 X138.137 Y143.578 E0.78491
G1 X138.623 Y143.291 E0.8004
G1 X139.154 Y143.1 E0.81588
G1 X139.712 Y143.011 E0.83139
G1 X140.276 Y143.029 E0.84687
G1 X140.827 Y143.152 E0.86236
G1 X141.345 Y143.377 E0.87786
G1 X141.812 Y143.694 E0.89335
G1 X142.211 Y144.093 E0.90883
G1 X142.529 Y144.56 E0.92433
G1 X142.753 Y145.078 E0.93982
G1 X142.876 Y145.629 E0.95531
G1 X142.9 Y146.005 E0.96565
G1 X142.953 Y145.442 E0.98117
G1 X143.111 Y144.9 E0.99666
G1 X143.367 Y144.397 E1.01214
G1 X143.713 Y143.951 E1.02763
G1 X144.137 Y143.578 E1.04313
G1 X144.623 Y143.29 E1.05863
G1 X145.154 Y143.099 E1.07411
G1 X145.712 Y143.01 E1.08962
G1 X146.276 Y143.028 E1.1051
G1 X146.827 Y143.151 E1.12059
G1 X147.345 Y143.376 E1.13609
G1 X147.812 Y143.693 E1.15158
G1 X148.211 Y144.092 E1.16706
G1 X148.529 Y144.559 E1.18257
G1 X148.753 Y145.078 E1.19808
G1 X148.876 Y145.629 E1.21357
G1 X148.9 Y146.004 E1.22388
G1 X148.953 Y145.441 E1.2394
G1 X149.111 Y144.899 E1.25489
G1 X149.367 Y144.396 E1.27037
G1 X149.713 Y143.95 E1.28586
G1 X150.137 Y143.577 E1.30136
G1 X150.623 Y143.289 E1.31686
G1 X151.154 Y143.098 E1.33234
G1 X151.712 Y143.01 E1.34784
G1 X152.276 Y143.027 E1.36333
G1 X152.827 Y143.15 E1.37882
G1 X153.345 Y143.375 E1.39432
G1 X153.812 Y143.692 E1.4098
G1 X154.211 Y144.091 E1.42529
G1 X154.529 Y144.558 E1.44079
G1 X154.753 Y145.077 E1.4563
G1 X154.876 Y145.628 E1.47179
G1 X154.9 Y146.003 E1.4821
G1 X154.953 Y145.441 E1.49759
G1 X155.111 Y144.898 E1.51311
G1 X155.367 Y144.395 E1.5286
G1 X155.713 Y143.949 E1.54409
G1 X156.137 Y143.576 E1.55958
G1 X156.623 Y143.288 E1.57508
G1 X157.154 Y143.097 E1.59057
G1 X157.712 Y143.009 E1.60607
G1 X158.276 Y143.026 E1.62155
G1 X158.827 Y143.15 E1.63705
G1 X159.345 Y143.374 E1.65253
G1 X159.812 Y143.691 E1.66802
G1 X160.211 Y144.09 E1.6835
G1 X160.529 Y144.557 E1.69901
G1 X160.753 Y145.076 E1.71452
G1 X160.876 Y145.627 E1.73001
G1 X160.9 Y146.002 E1.74032
G1 X160.953 Y145.44 E1.75581
G1 X161.111 Y144.897 E1.77133
G1 X161.367 Y144.394 E1.78682
G1 X161.713 Y143.948 E1.8023
G1 X162.137 Y143.575 E1.8178
G1 X162.623 Y143.287 E1.8333
G1 X163.154 Y143.096 E1.84879
G1 X163.712 Y143.008 E1.86429
G1 X164.276 Y143.025 E1.87977
G1 X164.827 Y143.149 E1.89527
G1 X165.345 Y143.373 E1.91075
G1 X165.812 Y143.69 E1.92624
G1 X166.211 Y144.09 E1.94174
G1 X166.529 Y144.557 E1.95725
G1 X166.753 Y145.075 E1.97273
G1 X166.876 Y145.626 E1.98822
G1 X166.9 Y146.001 E1.99853
G1 X166.953 Y145.439 E2.01402
G1 X167.111 Y144.897 E2.02951
G1 X167.367 Y144.393 E2.04503
G1 X167.713 Y143.947 E2.06051
G1 X168.137 Y143.574 E2.07601
G1 X168.623 Y143.286 E2.09151
G1 X169.154 Y143.095 E2.107
G1 X169.712 Y143.007 E2.1225
G1 X170.276 Y143.025 E2.13798
G1 X170.827 Y143.148 E2.15347
G1 X171.345 Y143.372 E2.16896
G1 X171.812 Y143.689 E2.18445
G1 X172.211 Y144.089 E2.19995
G1 X172.529 Y144.556 E2.21545
G1 X172.753 Y145.074 E2.23094
G1 X172.876 Y145.625 E2.24643
G1 X172.9 Y146 E2.25674
G1 X172.953 Y145.438 E2.27223
G1 X173.111 Y144.896 E2.28772
G1 X173.367 Y144.393 E2.30321
G1 X173.713 Y143.946 E2.31872
G1 X174.137 Y143.573 E2.33421
G1 X174.623 Y143.286 E2.3497
G1 X175.154 Y143.094 E2.36519
G1 X175.712 Y143.006 E2.38069
G1 X176.276 Y143.024 E2.39618
G1 X176.827 Y143.147 E2.41167
G1 X177.345 Y143.371 E2.42716
G1 X177.812 Y143.688 E2.44264
G1 X178.211 Y144.088 E2.45815
G1 X178.529 Y144.555 E2.47365
G1 X178.753 Y145.073 E2.48913
G1 X178.876 Y145.624 E2.50463
G1 X178.9 Y146 E2.51496
G1 X179.319 Y146 E2.52646
G1 X179.802 Y145.929 E2.53986
G1 X180.367 Y145.946 E2.55537
G1 X180.918 Y146.069 E2.57086
G1 X181.436 Y146.294 E2.58636
G1 X181.903 Y146.611 E2.60184
G1 X182.302 Y147.01 E2.61733
G1 X182.619 Y147.477 E2.63281
G1 X182.844 Y147.996 E2.64834
G1 X182.967 Y148.547 E2.66383
G1 X182.985 Y149.111 E2.67931
G1 X182.896 Y149.669 E2.69482
G1 X182.705 Y150.2 E2.7103
G1 X182.418 Y150.686 E2.72579
G1 X182.044 Y151.11 E2.7413
G1 X181.598 Y151.456 E2.75679
G1 X181.095 Y151.712 E2.77228
G1 X180.553 Y151.87 E2.78777
G1 X180.014 Y151.922 E2.80263
G1 X180.323 Y152.326 E2.81658
G1 X180.579 Y152.83 E2.8321
G1 X180.737 Y153.372 E2.84759
G1 X180.79 Y153.934 E2.86308
G1 X180.737 Y154.496 E2.87857
G1 X180.579 Y155.038 E2.89406
G1 X180.323 Y155.541 E2.90954
G1 X179.977 Y155.988 E2.92505
G1 X179.553 Y156.361 E2.94055
G1 X179.067 Y156.648 E2.95604
G1 X178.536 Y156.84 E2.97153
G1 X177.978 Y156.928 E2.98703
G1 X177.414 Y156.91 E3.00252
G1 X176.863 Y156.787 E3.01801
G1 X176.345 Y156.563 E3.03349
G1 X175.878 Y156.245 E3.049
G1 X175.478 Y155.846 E3.0645
G1 X175.161 Y155.379 E3.07999
G1 X174.937 Y154.861 E3.09547
G1 X174.814 Y154.31 E3.11096
G1 X174.796 Y153.746 E3.12645
G1 X174.892 Y153.159 E3.14277
G1 X174.587 Y153.891 E3.16453
G1 X174.27 Y154.358 E3.18002
G1 X173.871 Y154.757 E3.1955
G1 X173.404 Y155.075 E3.211
G1 X172.886 Y155.299 E3.22649
G1 X172.335 Y155.422 E3.24198
G1 X171.77 Y155.44 E3.25749
G1 X171.212 Y155.351 E3.273
G1 X170.681 Y155.16 E3.28848
G1 X170.195 Y154.873 E3.30397
G1 X169.772 Y154.499 E3.31946
G1 X169.426 Y154.053 E3.33495
G1 X169.169 Y153.55 E3.35045
G1 X169.012 Y153.008 E3.36593
G1 X168.959 Y152.446 E3.38142
G1 X169.012 Y151.884 E3.39691
G1 X169.002 Y151.825 E3.39855
G1 X168.839 Y152.401 E3.41498
G1 X168.583 Y152.904 E3.43047
G1 X168.237 Y153.351 E3.44598
G1 X167.813 Y153.724 E3.46147
G1 X167.327 Y154.011 E3.47696
G1 X166.796 Y154.203 E3.49245
G1 X166.238 Y154.291 E3.50795
G1 X165.674 Y154.273 E3.52344
G1 X165.123 Y154.15 E3.53893
G1 X164.604 Y153.926 E3.55444
G1 X164.137 Y153.608 E3.56994
G1 X163.738 Y153.209 E3.58543
G1 X163.421 Y152.742 E3.60091
G1 X163.197 Y152.224 E3.6164
G1 X163.073 Y151.673 E3.6319
G1 X163.056 Y151.109 E3.64738
G1 X163.076 Y150.883 E3.65361
G1 X162.952 Y151.434 E3.6691
G1 X162.728 Y151.952 E3.68459
G1 X162.411 Y152.419 E3.70008
G1 X162.011 Y152.818 E3.71558
G1 X161.544 Y153.135 E3.73107
G1 X161.026 Y153.36 E3.74656
G1 X160.475 Y153.483 E3.76205
G1 X159.911 Y153.501 E3.77754
G1 X159.353 Y153.412 E3.79304
G1 X158.822 Y153.221 E3.80853
G1 X158.336 Y152.934 E3.82402
G1 X157.912 Y152.56 E3.83953
G1 X157.566 Y152.114 E3.85502
G1 X157.31 Y151.611 E3.8705
G1 X157.152 Y151.069 E3.886
G1 X157.099 Y150.507 E3.90149
G1 X157.108 Y150.271 E3.90797
G1 X157.02 Y150.829 E3.92347
G1 X156.828 Y151.36 E3.93896
G1 X156.541 Y151.846 E3.95445
G1 X156.168 Y152.269 E3.96992
G1 X155.721 Y152.616 E3.98545
G1 X155.218 Y152.872 E4.00094
G1 X154.676 Y153.029 E4.01642
G1 X154.114 Y153.083 E4.03191
G1 X153.552 Y153.029 E4.0474
G1 X153.01 Y152.872 E4.06289
G1 X152.506 Y152.616 E4.0784
G1 X152.06 Y152.269 E4.09391
G1 X151.687 Y151.846 E4.10938
G1 X151.399 Y151.36 E4.12488
G1 X151.208 Y150.829 E4.14037
G1 X151.12 Y150.271 E4.15587
G1 X151.116 Y150.018 E4.16281
G1 X151.063 Y150.58 E4.1783
G1 X150.905 Y151.122 E4.19379
G1 X150.649 Y151.626 E4.2093
G1 X150.303 Y152.072 E4.22479
G1 X149.879 Y152.445 E4.24029
G1 X149.393 Y152.733 E4.25579
G1 X148.862 Y152.924 E4.27127
G1 X148.304 Y153.012 E4.28677
G1 X147.74 Y152.994 E4.30226
G1 X147.189 Y152.871 E4.31775
G1 X146.67 Y152.647 E4.33326
G1 X146.203 Y152.33 E4.34875
G1 X145.804 Y151.93 E4.36425
G1 X145.487 Y151.463 E4.37974
G1 X145.263 Y150.945 E4.39522
G1 X145.139 Y150.394 E4.41072
G1 X145.116 Y150.124 E4.41816
G1 X145.098 Y150.688 E4.43364
G1 X144.975 Y151.239 E4.44913
G1 X144.751 Y151.758 E4.46464
G1 X144.433 Y152.225 E4.48014
G1 X144.034 Y152.624 E4.49563
G1 X143.567 Y152.941 E4.51112
G1 X143.049 Y153.165 E4.5266
G1 X142.498 Y153.289 E4.5421
G1 X141.934 Y153.306 E4.55758
G1 X141.376 Y153.218 E4.57308
G1 X140.845 Y153.027 E4.58857
G1 X140.359 Y152.739 E4.60407
G1 X139.935 Y152.366 E4.61956
G1 X139.589 Y151.92 E4.63505
G1 X139.333 Y151.417 E4.65054
G1 X139.175 Y150.874 E4.66606
G1 X139.125 Y150.595 E4.67383
G1 X139.142 Y151.154 E4.68918
G1 X139.054 Y151.712 E4.70468
G1 X138.862 Y152.243 E4.72017
G1 X138.575 Y152.729 E4.73566
G1 X138.201 Y153.152 E4.75116
G1 X137.755 Y153.498 E4.76664
G1 X137.252 Y153.755 E4.78214
G1 X136.71 Y153.912 E4.79763
G1 X136.148 Y153.965 E4.81312
G1 X135.586 Y153.912 E4.82861
G1 X135.043 Y153.755 E4.84412
G1 X134.54 Y153.498 E4.85962
G1 X134.094 Y153.152 E4.8751
G1 X133.721 Y152.729 E4.89058
G1 X133.433 Y152.243 E4.90608
G1 X133.242 Y151.712 E4.92157
G1 X133.185 Y151.425 E4.92959
G1 X133.207 Y152.165 E4.94991
G1 X133.118 Y152.723 E4.96541
G1 X132.927 Y153.254 E4.9809
G1 X132.64 Y153.74 E4.99639
G1 X132.266 Y154.164 E5.0119
G1 X131.82 Y154.51 E5.02739
G1 X131.317 Y154.766 E5.04287
G1 X130.775 Y154.924 E5.05837
G1 X130.213 Y154.977 E5.07386
G1 X129.651 Y154.924 E5.08935
G1 X129.108 Y154.766 E5.10486
G1 X128.605 Y154.51 E5.12035
G1 X128.159 Y154.164 E5.13584
G1 X127.786 Y153.74 E5.15133
G1 X127.498 Y153.254 E5.16684
G1 X127.307 Y152.723 E5.18232
G1 X127.249 Y152.621 E5.18554
G1 X127.332 Y153.157 E5.20042
G1 X127.314 Y153.722 E5.21593
G1 X127.191 Y154.273 E5.23143
G1 X126.967 Y154.791 E5.24691
G1 X126.65 Y155.258 E5.2624
G1 X126.25 Y155.657 E5.2779
G1 X125.783 Y155.974 E5.29339
G1 X125.265 Y156.199 E5.30889
G1 X124.714 Y156.322 E5.32438
G1 X124.15 Y156.34 E5.33986
G1 X123.592 Y156.251 E5.35537
G1 X123.061 Y156.06 E5.37085
G1 X122.575 Y155.773 E5.38634
G1 X122.151 Y155.399 E5.40185
G1 X121.805 Y154.953 E5.41734
G1 X121.549 Y154.45 E5.43283
G1 X121.403 Y153.991 E5.44604
G1 X120.936 Y154.189 E5.45996
G1 X120.385 Y154.312 E5.47545
G1 X119.82 Y154.33 E5.49096
G1 X119.262 Y154.242 E5.50647
G1 X118.731 Y154.05 E5.52196
G1 X118.245 Y153.763 E5.53745
G1 X117.822 Y153.39 E5.55292
G1 X117.476 Y152.943 E5.56843
G1 X117.219 Y152.44 E5.58393
G1 X117.062 Y151.898 E5.59941
G1 X117.009 Y151.336 E5.6149
G1 X117.062 Y150.774 E5.63039
G1 X117.219 Y150.232 E5.64588
G1 X117.476 Y149.728 E5.6614
G1 X117.822 Y149.282 E5.67689
G1 X118.245 Y148.909 E5.69237
G1 X118.731 Y148.621 E5.70787
G1 X119.262 Y148.43 E5.72335
G1 X119.82 Y148.342 E5.73885
G1 X119.988 Y148.32 E5.7435
G1 X119.588 Y147.92 E5.75902
G1 X119.271 Y147.453 E5.77451
G1 X119.047 Y146.935 E5.79
G1 X118.924 Y146.384 E5.80549
G1 X118.906 Y145.82 E5.82097
G1 X118.994 Y145.262 E5.83647
G1 X119.185 Y144.731 E5.85196
G1 X119.473 Y144.245 E5.86746
G1 X119.846 Y143.821 E5.88295
;;retract;;
G1 F6000 E-2.11705
;MESH:
G0 F3600 X178.6 Y145.33
G0 X178.6 Y146.9
;TYPE:WALL-INNER
G1 F6000 E5.88295
G1 F1500 X121.4 Y146.9 E7.4525
G1 X121.4 Y151.038 E7.56604
G1 X121.436 Y151.049 E7.56708
G1 X121.596 Y151.101 E7.57169
G1 X121.437 Y151.152 E7.57244
G1 X121.4 Y151.164
G1 X121.4 Y153.4 E7.6338
G1 X120.6 Y153.4 E7.65575
G1 X120.6 Y146.6 E7.84234
G1 X121.4 Y146.6 E7.86429
G1 X178.6 Y146.6 E9.0444
G1 X179.4 Y146.6 E9.06635
G1 X179.4 Y153.4 E9.25294
G1 X178.6 Y153.4 E9.27489
G1 X178.6 Y151.162 E9.3363
G1 X178.564 Y151.151 E9.33733
G1 X178.404 Y151.099 E9.34195
G1 X178.563 Y151.048 E9.3427
G1 X178.6 Y151.036
G1 X178.6 Y146.9 E9.45619
G0 F3600 X178.2 Y147.3
;TYPE:WALL-OUTER
G1 F1500 X121.8 Y147.3 E11.00378
G1 X121.8 Y150.746 E11.09834
G1 X122.131 Y150.853 E11.10788
G1 X122.17 Y150.865 E11.109
G1 X122.254 Y150.98 E11.11291
G1 X122.276 Y151.011 E11.11396
G1 X122.276 Y151.189 E11.11884
G1 X122.252 Y151.221 E11.11994
G1 X122.167 Y151.336 E11.12386
G1 X122.13 Y151.348 E11.12493
G1 X121.8 Y151.455 E11.13445
